!!!!SEGMENT: pl-cz--iii-270--007_gotschalk-filip--missa-pastoriria-in-c-dona-nobis.krn
!!!cenid: 18xx:130
!!!COM: Gotschalk, Filip
!!!COM-rismid: pe30020320
!!!CDT: 1760-1809
!!!CNT:
!!!OPR: Missa Pastoriria in C
!!!OTL: Dona nobis
!!!OMV: 007
!!!PDT:
!!!AGN: Sacred; Mass
!!!SMS-siglum: PL-CZ
!!!SMS-shelfmark: III-270
!!!SMS-shelfwork: 001-007 M
!!!NIFC-rismid:
!!!URL-scan: http://repozytorium.nifc.pl/skany/pl-cz-nut--iii-270
!!!ONB-nifc:
**kern	**fb	**dynam	**kern	**text	**text	**kern	**text	**text	**kern	**text	**text	**kern	**dynam	**kern	**dynam	**kern	**dynam	**kern	**dynam	**kern	**dynam	**kern	**dynam
*part10	*	*part10	*part7	*part7	*	*part6	*part6	*	*part5	*part5	*	*part9	*part9	*part8	*part8	*part4	*part4	*part3	*part3	*part2	*part2	*part1	*part1
*staff10	*	*	*staff7	*staff7	*	*staff6	*staff6	*	*staff5	*staff5	*	*staff9	*	*staff8	*	*staff4	*	*staff3	*	*staff2	*	*staff1	*
*Iorgan	*	*	*Ibass	*	*	*Ialto	*	*	*Ivox	*	*	*Ivioln	*	*Ivioln	*	*Iempty	*	*Iempty	*	*Iclars	*	*Iclars	*
*I"Organo	*	*	*I"Basso	*	*	*I"Alto	*	*	*I"Canto	*	*	*I"Violino Secondo	*	*I"Violino Primo	*	*I"Cornu Secondo in C	*	*I"Cornu Primo in C	*	*I"Clarinetto Secondo	*	*I"Clarinetto Primo	*
*I'Org	*	*	*I'B	*	*	*I'A	*	*	*I'C	*	*	*I'Vln II	*	*I'Vln I	*	*I'Cor II	*	*I'Cor I	*	*I'Cl II	*	*I'Cl I	*
*clefF4	*	*	*clefF4	*	*	*clefC3	*	*	*clefC1	*	*	*clefG2	*	*clefG2	*	*clefG2	*	*clefG2	*	*clefG2	*	*clefG2	*
*k[]	*	*	*k[]	*	*	*k[]	*	*	*k[]	*	*	*k[]	*	*k[]	*	*k[]	*	*k[]	*	*k[]	*	*k[]	*
*C:	*	*	*C:	*	*	*C:	*	*	*C:	*	*	*C:	*	*C:	*	*C:	*	*C:	*	*C:	*	*C:	*
*M4/4	*	*	*M4/4	*	*	*M4/4	*	*	*M4/4	*	*	*M4/4	*	*M4/4	*	*M4/4	*	*M4/4	*	*M4/4	*	*M4/4	*
*met(c)	*	*	*met(c)	*	*	*met(c)	*	*	*met(c)	*	*	*met(c)	*	*met(c)	*	*met(c)	*	*met(c)	*	*met(c)	*	*met(c)	*
=1	=1	=1	=1	=1	=1	=1	=1	=1	=1	=1	=1	=1	=1	=1	=1	=1	=1	=1	=1	=1	=1	=1	=1
*M2/2	*	*	*M2/2	*	*	*M2/2	*	*	*M2/2	*	*	*M2/2	*	*M2/2	*	*M2/2	*	*M2/2	*	*M2/2	*	*M2/2	*
*met(c|)	*	*	*met(c|)	*	*	*met(c|)	*	*	*met(c|)	*	*	*met(c|)	*	*met(c|)	*	*met(c|)	*	*met(c|)	*	*met(c|)	*	*met(c|)	*
*	*	*	*	*	*	*2\right	*	*	*2\right	*	*	*	*	*	*	*	*	*2\right	*	*	*	*2\right	*
!LO:TX:a:t=Tutti.	!	!	!	!	!	!	!	!	!	!	!	!	!	!	!	!	!	!	!	!	!	!	!
!	!	!	!LO:TX:a:t=Tutti	!	!	!	!	!	!	!	!	!LO:TX:b:t=Christe	!	!LO:TX:b:t=Christe	!	!	!	!	!	!LO:TX:b:t=Christe	!	!LO:TX:b:t=Christe	!
!LO:TX:b:t=Christe	!	!	!	!	!	!	!	!	!	!	!	!	!	!	!	!	!	!	!	!	!	!	!
!!LO:TX:a:t=problem:brak podpisanego tekstu Dona nobis, tekst podłożony analogicznie
!!LO:TX:a:t=Dona nobis ut Christe Allegro.
4C	.	.	2C	Chris-	Do_na	2e	Chris-	Do_na	4cc	Chris-	Do-	4G 4e	f	4cc	f	2c	.	2cc	.	4g	.	4cc	.
4C	.	.	.	.	.	.	.	.	8eeL	.	-na	4G 4e	.	8eeL	.	.	.	.	.	4g	.	8eeL	.
.	.	.	.	.	.	.	.	.	8ccJ	.	.	.	.	8ccJ	.	.	.	.	.	.	.	8ccJ	.
4G	.	.	4G	-te	no-	4g	-te	no-	4b	-te	no-	4G 4d	.	4b/	.	2g	.	2g	.	4g	.	4b/	.
4G	.	.	4G	e-	-bis	4g	e-	-bis	4g	e-	-bis	4G 4d	.	4g	.	.	.	.	.	4g	.	4g	.
=2	=2	=2	=2	=2	=2	=2	=2	=2	=2	=2	=2	=2	=2	=2	=2	=2	=2	=2	=2	=2	=2	=2	=2
*2\right	*	*	*2\right	*	*	*	*	*	*	*	*	*2\right	*	*2\right	*	*	*	*	*	*2\right	*	*	*
4C	.	.	4C	-lei-	pa-	4c	-lei-	pa-	4cc	-lei-	pa-	4G 4e	.	4cc	.	4c	.	4cc	.	4g	.	4cc	.
4C	.	.	4E	.	.	4e	.	.	4ee	.	.	4G 4e	.	4ee	.	4e	.	4ee	.	4g	.	4ee	.
4C	.	.	2G	-son	-cem	2g	-son	-cem	2gg	-son	-cem	4G 4e	.	2gg	.	2g	.	2gg	.	2g	.	2gg	.
4C	.	.	.	.	.	.	.	.	.	.	.	4G 4e	.	.	.	.	.	.	.	.	.	.	.
=3	=3	=3	=3	=3	=3	=3	=3	=3	=3	=3	=3	=3	=3	=3	=3	=3	=3	=3	=3	=3	=3	=3	=3
4G	7	.	4d	Ky-	Do-	4dd	Ky-	Do-	4ff	Ky-	Do-	4G 4d	.	4ff	.	2g	.	2ff	.	2r	.	2r	.
4G	.	.	4d	-ri-	-na	4dd	-ri-	-na	8aaL	-ri-	-na	4G 4d	.	8aaL	.	.	.	.	.	.	.	.	.
.	.	.	.	.	.	.	.	.	8ffJ	.	.	.	.	8ffJ	.	.	.	.	.	.	.	.	.
4G	5	.	4G	-e	no-	4g	-e	no-	4dd	-e	no-	4G 4f	.	4dd	.	2g	.	2dd	.	4r	.	4r	.
4G	.	.	4G	e-	-bis	4g	e-	-bis	4b	e-	-bis	4G 4f	.	4b	.	.	.	.	.	4g	.	4bb	.
=4	=4	=4	=4	=4	=4	=4	=4	=4	=4	=4	=4	=4	=4	=4	=4	=4	=4	=4	=4	=4	=4	=4	=4
4c'	.	.	(>4c	-lei-	pa-	4cc	-lei-	pa-	4cc	-lei-	pa-	4c	.	4cc	.	4c	.	4cc	.	4cc	.	4ccc	.
4e'	.	.	4e)	.	.	4ee	.	.	4ee	.	.	4e	.	4ee	.	4e	.	4ee	.	4ee	.	4eee	.
2G`	.	.	2G	-son	-cem	2g	-son	-cem	2g	-son	-cem	2G	.	2g	.	2g	.	2g	.	2g	.	2gg	.
!	!	!	!	!	!	!	!	!	!	!	!	!	!	!	!	!LO:LB:g=original	!	!	!	!	!	!	!
=5	=5	=5	=5	=5	=5	=5	=5	=5	=5	=5	=5	=5	=5	=5	=5	=5	=5	=5	=5	=5	=5	=5	=5
!LO:TX:a:t=Solo	!	!	!	!	!	!	!	!	!	!	!	!	!	!	!	!	!	!	!	!	!	!	!
4C	.	p	1r	.	.	1r	.	.	1r	.	.	4G 4e	p	8ccL	p	1r	.	1r	.	1r	.	1r	.
.	.	.	.	.	.	.	.	.	.	.	.	.	.	8dd	.	.	.	.	.	.	.	.	.
4C	.	.	.	.	.	.	.	.	.	.	.	4G 4e	.	8ee	.	.	.	.	.	.	.	.	.
.	.	.	.	.	.	.	.	.	.	.	.	.	.	8ccJ	.	.	.	.	.	.	.	.	.
4G	.	.	.	.	.	.	.	.	.	.	.	4G 4d	.	8bL	.	.	.	.	.	.	.	.	.
.	.	.	.	.	.	.	.	.	.	.	.	.	.	8dd	.	.	.	.	.	.	.	.	.
4G	.	.	.	.	.	.	.	.	.	.	.	4G 4d	.	8b	.	.	.	.	.	.	.	.	.
.	.	.	.	.	.	.	.	.	.	.	.	.	.	8gJ	.	.	.	.	.	.	.	.	.
!	!	!	!	!	!	!	!	!	!	!	!	!	!	!LO:LB:g=original	!	!	!	!	!	!	!	!	!
=6	=6	=6	=6	=6	=6	=6	=6	=6	=6	=6	=6	=6	=6	=6	=6	=6	=6	=6	=6	=6	=6	=6	=6
!LO:TX:a:t=Solo	!	!	!	!	!	!	!	!	!	!	!	!	!	!	!	!	!	!	!	!	!	!	!
4C	.	.	1r	.	.	1r	.	.	1r	.	.	4G 4e	.	8ccL	.	1r	.	1r	.	1r	.	1r	.
.	.	.	.	.	.	.	.	.	.	.	.	.	.	8dd	.	.	.	.	.	.	.	.	.
4C	.	.	.	.	.	.	.	.	.	.	.	4G 4e	.	8ee	.	.	.	.	.	.	.	.	.
.	.	.	.	.	.	.	.	.	.	.	.	.	.	8ffJ	.	.	.	.	.	.	.	.	.
4C	.	.	.	.	.	.	.	.	.	.	.	4G 4e	.	2gg	.	.	.	.	.	.	.	.	.
4C	.	.	.	.	.	.	.	.	.	.	.	4G 4e	.	.	.	.	.	.	.	.	.	.	.
!LO:LB:g=original	!	!	!	!	!	!	!	!	!	!	!	!LO:LB:g=original	!	!	!	!	!	!	!	!	!	!	!
=7	=7	=7	=7	=7	=7	=7	=7	=7	=7	=7	=7	=7	=7	=7	=7	=7	=7	=7	=7	=7	=7	=7	=7
4G	7	.	1r	.	.	1r	.	.	1r	.	.	4G 4d	.	8ggL	.	1r	.	1r	.	1r	.	1r	.
.	.	.	.	.	.	.	.	.	.	.	.	.	.	8ff	.	.	.	.	.	.	.	.	.
4G	.	.	.	.	.	.	.	.	.	.	.	4G 4d	.	8aa	.	.	.	.	.	.	.	.	.
.	.	.	.	.	.	.	.	.	.	.	.	.	.	8ffJ	.	.	.	.	.	.	.	.	.
4G	5	.	.	.	.	.	.	.	.	.	.	4G 4f	.	8ddL	.	.	.	.	.	.	.	.	.
.	.	.	.	.	.	.	.	.	.	.	.	.	.	8ff	.	.	.	.	.	.	.	.	.
4G	.	.	.	.	.	.	.	.	.	.	.	4G 4f	.	8dd	.	.	.	.	.	.	.	.	.
.	.	.	.	.	.	.	.	.	.	.	.	.	.	8bJ	.	.	.	.	.	.	.	.	.
=8	=8	=8	=8	=8	=8	=8	=8	=8	=8	=8	=8	=8	=8	=8	=8	=8	=8	=8	=8	=8	=8	=8	=8
8cL	.	.	1r	.	.	1r	.	.	1r	.	.	8cL	.	8ccL	.	1r	.	1r	.	8ccL	p	8cccL	p
8B	.	.	.	.	.	.	.	.	.	.	.	8B	.	8b	.	.	.	.	.	8b	.	8bb	.
8c	.	.	.	.	.	.	.	.	.	.	.	8c	.	8cc	.	.	.	.	.	8cc	.	8ccc	.
8eJ	.	.	.	.	.	.	.	.	.	.	.	8eJ	.	8eeJ	.	.	.	.	.	8eeJ	.	8eeeJ	.
2G	.	.	.	.	.	.	.	.	.	.	.	2G	.	2g	.	.	.	.	.	2g	.	2gg	.
!	!	!	!LO:LB:g=original	!	!	!	!	!	!LO:LB:g=original	!	!	!	!	!	!	!	!	!	!	!LO:LB:g=original	!	!LO:LB:g=original	!
=9	=9	=9	=9	=9	=9	=9	=9	=9	=9	=9	=9	=9	=9	=9	=9	=9	=9	=9	=9	=9	=9	=9	=9
*	*	*	*	*	*	*	*	*	*	*	*	*	*	*	*	*2\right	*	*	*	*	*	*	*
4C	.	.	2C	Chri-	Do_na	2e	Chri-	Do_na	2gg	Chri-	Do_na	8eeL	f	8ggL	f	2cc	.	4gg	.	1r	.	1r	.
.	.	.	.	.	.	.	.	.	.	.	.	8ff	.	8aa	.	.	.	.	.	.	.	.	.
4c	.	.	.	.	.	.	.	.	.	.	.	8ee	.	8gg	.	.	.	4ee	.	.	.	.	.
.	.	.	.	.	.	.	.	.	.	.	.	8ccJ	.	8eeJ	.	.	.	.	.	.	.	.	.
4c	.	.	4c	-ste	no-	4cc	-ste	no-	4ee	-ste	no-	4G 4e	.	4cc	.	4cc	.	4cc	.	.	.	.	.
4c	.	.	4c	e-	-bis	4cc	e-	-bis	4cc	e-	-bis	4G 4e	.	4cc	.	4cc	.	4cc	.	.	.	.	.
!	!	!	!	!	!	!LO:LB:g=original	!	!	!	!	!	!	!	!	!	!	!	!	!	!	!	!	!
=10	=10	=10	=10	=10	=10	=10	=10	=10	=10	=10	=10	=10	=10	=10	=10	=10	=10	=10	=10	=10	=10	=10	=10
4G	.	.	2G	-lei-	pa-	(>4b	-lei-	pa-	4dd	-lei-	pa-	8bL	.	8ddL	.	4g	.	4dd	.	1r	.	1r	.
.	.	.	.	.	.	.	.	.	.	.	.	8a	.	8cc	.	.	.	.	.	.	.	.	.
4G	.	.	.	.	.	4cc)	.	.	4ee	.	.	8b	.	8dd	.	4cc	.	4ee	.	.	.	.	.
.	.	.	.	.	.	.	.	.	.	.	.	8ccJ	.	8eeJ	.	.	.	.	.	.	.	.	.
4G	7	.	2G	-son	cem	2dd	-son	cem	2ff	-son	cem	2dd	.	2ff	.	2dd	.	2ff	.	.	.	.	.
4G	7	.	.	.	.	.	.	.	.	.	.	.	.	.	.	.	.	.	.	.	.	.	.
!	!	!	!	!	!	!	!	!	!	!	!	!	!	!	!	!	!	!LO:LB:g=original	!	!	!	!	!
=11	=11	=11	=11	=11	=11	=11	=11	=11	=11	=11	=11	=11	=11	=11	=11	=11	=11	=11	=11	=11	=11	=11	=11
4GG	7	.	2G	Chri-	Do_na	2dd	Chri-	Do_na	2ff	Chri-	Do_na	4dd	.	8ffL	.	2g	.	4ff	.	1r	.	1r	.
.	.	.	.	.	.	.	.	.	.	.	.	.	.	8gg	.	.	.	.	.	.	.	.	.
4G	.	.	.	.	.	.	.	.	.	.	.	4G 4f	.	8ff	.	.	.	4dd	.	.	.	.	.
.	.	.	.	.	.	.	.	.	.	.	.	.	.	8ddJ	.	.	.	.	.	.	.	.	.
4G	5	.	4G	-ste	no-	4g	-ste	no-	4dd	-ste	no-	4G 4d	.	4b	.	4g	.	4g	.	.	.	.	.
4G	.	.	4G	e-	-bis	4g	e-	-bis	4b	e-	-bis	4G 4d	.	4b	.	4g	.	4g	.	.	.	.	.
!	!	!	!	!	!	!	!	!	!	!	!	!	!	!LO:LB:g=original	!	!	!	!	!	!	!	!	!
=12	=12	=12	=12	=12	=12	=12	=12	=12	=12	=12	=12	=12	=12	=12	=12	=12	=12	=12	=12	=12	=12	=12	=12
4c	.	.	4c	-lei-	pa-	4e	-lei-	pa-	4cc	-lei-	pa-	8eL	.	8ccL	.	4e	.	4cc	.	1r	.	1r	.
.	.	.	.	.	.	.	.	.	.	.	.	8d	.	8b	.	.	.	.	.	.	.	.	.
4G	.	.	4G	.	.	4g	.	.	4dd	.	.	8e	.	8cc	.	4g	.	4dd	.	.	.	.	.
.	.	.	.	.	.	.	.	.	.	.	.	8fJ	.	8ddJ	.	.	.	.	.	.	.	.	.
8r	.	.	2C	-son	cem	2cc	-son	cem	2ee	-son	cem	2G 2g	.	2ee	.	2cc	.	2ee	.	.	.	.	.
8CL	.	.	.	.	.	.	.	.	.	.	.	.	.	.	.	.	.	.	.	.	.	.	.
8E	.	.	.	.	.	.	.	.	.	.	.	.	.	.	.	.	.	.	.	.	.	.	.
8GJ	.	.	.	.	.	.	.	.	.	.	.	.	.	.	.	.	.	.	.	.	.	.	.
=13	=13	=13	=13	=13	=13	=13	=13	=13	=13	=13	=13	=13	=13	=13	=13	=13	=13	=13	=13	=13	=13	=13	=13
!LO:TX:a:t=Solo	!	!	!	!	!	!	!	!	!	!	!	!	!	!	!	!	!	!	!	!	!	!	!
4c	.	p	4C	Ky-	Do-	4e	Ky-	Do-	4gg	Ky-	Do-	8eeL	p	8ggL	p	1r	.	1r	.	8eeL	.	8ggL	p
.	.	.	.	.	.	.	.	.	.	.	.	8ff	.	8aa	.	.	.	.	.	8ff	.	8aa	.
4c	.	.	4C	-ri-	-na	4e	-ri-	-na	4gg	-ri-	-na	8ee	.	8gg	.	.	.	.	.	8ee	.	8gg	.
.	.	.	.	.	.	.	.	.	.	.	.	8ccJ	.	8ffJ	.	.	.	.	.	8ddJ	.	8ffJ	.
.	.	.	.	.	.	.	.	.	.	.	.	.	.	.	.	.	.	.	.	.	.	8qqff/	.
4c	.	.	4C	-e	no-	4cc	-e	no-	4ee	-e	no-	4G 4e	.	8ffL	.	.	.	.	.	4cc	.	4ee	.
.	.	.	.	.	.	.	.	.	.	.	.	.	.	8ee	.	.	.	.	.	.	.	.	.
4c	.	.	4C	e-	-bis	4cc	e-	-bis	4cc	e-	-bis	4G 4e	.	8dd	.	.	.	.	.	4g	.	8ddL	.
.	.	.	.	.	.	.	.	.	.	.	.	.	.	8ccJ	.	.	.	.	.	.	.	8ccJ	.
!LO:LB:g=original	!	!	!	!	!	!	!	!	!	!	!	!LO:LB:g=original	!	!	!	!	!	!	!	!	!	!	!
=14	=14	=14	=14	=14	=14	=14	=14	=14	=14	=14	=14	=14	=14	=14	=14	=14	=14	=14	=14	=14	=14	=14	=14
4G	.	.	2G	-lei-	pa-	4b	-lei-	pa-	4dd	-lei-	pa-	8gL	.	8ddL	.	1r	.	1r	.	4g	.	4dd	.
.	.	.	.	.	.	.	.	.	.	.	.	8a	.	8cc	.	.	.	.	.	.	.	.	.
4G	.	.	.	.	.	4cc	.	.	4ee	.	.	8b	.	8dd	.	.	.	.	.	8bL	.	8ddL	.
.	.	.	.	.	.	.	.	.	.	.	.	8ccJ	.	8eeJ	.	.	.	.	.	8ccJ	.	8eeJ	.
4G	7	.	2G	-son	-cem	2dd	-son	-cem	2ff	-son	-cem	2dd	.	2ff	.	.	.	.	.	2dd	.	2ff	.
4G	.	.	.	.	.	.	.	.	.	.	.	.	.	.	.	.	.	.	.	.	.	.	.
!	!	!	!LO:LB:g=original	!	!	!	!	!	!LO:LB:g=original	!	!	!	!	!	!	!	!	!	!	!	!	!	!
=15	=15	=15	=15	=15	=15	=15	=15	=15	=15	=15	=15	=15	=15	=15	=15	=15	=15	=15	=15	=15	=15	=15	=15
4GG	7	.	4G	Ky-	Do-	4dd	Ky-	Do-	4ff	Ky-	Do-	4d 4b	.	8ffL	.	1r	.	1r	.	4dd	.	8ffL	.
.	.	.	.	.	.	.	.	.	.	.	.	.	.	8gg	.	.	.	.	.	.	.	8gg	.
4G	.	.	4G	-ri-	-na	4dd	-ri-	-na	4ff	-ri-	-na	4d 4b	.	8ff	.	.	.	.	.	8bL	.	8ff	.
.	.	.	.	.	.	.	.	.	.	.	.	.	.	8eeJ	.	.	.	.	.	8gJ	.	8eeJ	.
.	.	.	.	.	.	.	.	.	.	.	.	.	.	.	.	.	.	.	.	.	.	8qqee/	.
!	!	!	!	!	!	!LO:LB:g=original	!	!	!	!	!	!	!	!	!	!	!	!	!	!	!	!	!
4G	5	.	4G	-e	no-	4g	-e	no-	4dd	-e	no-	4d 4b	.	8eeL	.	.	.	.	.	4f	.	4dd	.
.	.	.	.	.	.	.	.	.	.	.	.	.	.	8dd	.	.	.	.	.	.	.	.	.
4G	.	.	4G	e-	-bis	4g	e-	-bis	4b	e-	-bis	4d 4b	.	8cc	.	.	.	.	.	4g	.	8ccL	.
.	.	.	.	.	.	.	.	.	.	.	.	.	.	8bJ	.	.	.	.	.	.	.	8bJ	.
=16	=16	=16	=16	=16	=16	=16	=16	=16	=16	=16	=16	=16	=16	=16	=16	=16	=16	=16	=16	=16	=16	=16	=16
!LO:TX:a:t=Tutti	!	!	!	!	!	!	!	!	!	!	!	!	!	!	!	!	!	!	!	!	!	!	!
4C	.	.	2c	-lei-	pa-	4e	-lei-	pa-	4cc	-lei-	pa-	8eL	.	8ccL	.	1r	.	1r	.	4e	.	4cc	.
.	.	.	.	.	.	.	.	.	.	.	.	8d	.	8b	.	.	.	.	.	.	.	.	.
4G	.	.	.	.	.	4g	.	.	4dd	.	.	8e	.	8cc	.	.	.	.	.	8eL	.	8ccL	.
.	.	.	.	.	.	.	.	.	.	.	.	8fJ	.	8ddJ	.	.	.	.	.	8gJ	.	8ddJ	.
4c	.	.	2C	-son	-cem	2cc	-son	-cem	2ee	-son	-cem	2G 2g	.	2ee	.	.	.	.	.	2cc	.	2ee	.
4C	.	.	.	.	.	.	.	.	.	.	.	.	.	.	.	.	.	.	.	.	.	.	.
=17	=17	=17	=17	=17	=17	=17	=17	=17	=17	=17	=17	=17	=17	=17	=17	=17	=17	=17	=17	=17	=17	=17	=17
!LO:TX:a:t=Tutti	!	!	!	!	!	!	!	!	!	!	!	!	!	!	!	!	!	!	!	!	!	!	!
8C'L	.	.	1r	.	.	1r	.	.	1r	.	.	8cL	f	8ccL	f	4c	.	4cc	.	8cL	f	8ccL	f
8D'	.	.	.	.	.	.	.	.	.	.	.	8d	.	8dd	.	.	.	.	.	8d	.	8dd	.
8E'	.	.	.	.	.	.	.	.	.	.	.	8e	.	8ee	.	4e	.	4ee	.	8e	.	8ee	.
8F#X'J	.	.	.	.	.	.	.	.	.	.	.	8fJ	.	8ffJ	.	.	.	.	.	8fJ	.	8ffJ	.
4G'	.	.	.	.	.	.	.	.	.	.	.	4g`	.	4gg	.	4g	.	4gg	.	4g	.	4gg	.
8A'L	.	.	.	.	.	.	.	.	.	.	.	8a`L	.	8aaL	.	4r	.	4r	.	8aL	.	8aaL	.
8B'J	.	.	.	.	.	.	.	.	.	.	.	8b`J	.	8bbJ	.	.	.	.	.	8bJ	.	8bbJ	.
!	!	!	!	!	!	!	!	!	!	!	!	!	!	!LO:LB:g=original	!	!	!	!	!	!	!	!LO:LB:g=original	!
=18	=18	=18	=18	=18	=18	=18	=18	=18	=18	=18	=18	=18	=18	=18	=18	=18	=18	=18	=18	=18	=18	=18	=18
!	!	!	!	!	!	!	!	!	!	!	!	!	!	!LO:TX:a:t=problem:brak oznaczenia grupy niemiarowej	!	!	!	!	!	!	!	!	!
4c`	.	.	1r	.	.	1r	.	.	1r	.	.	4cc`	.	12cccL	.	4c	.	4cc	.	4cc	.	4ccc	.
.	.	.	.	.	.	.	.	.	.	.	.	.	.	12ddd	.	.	.	.	.	.	.	.	.
.	.	.	.	.	.	.	.	.	.	.	.	.	.	12cccJ	.	.	.	.	.	.	.	.	.
!	!	!	!	!	!	!	!	!	!	!	!	!	!	!LO:TX:a:t=problem:brak oznaczenia grupy niemiarowej	!	!	!	!	!	!	!	!	!
4B`	.	.	.	.	.	.	.	.	.	.	.	4b`	.	12bbL	.	4r	.	4r	.	4b	.	4bb	.
.	.	.	.	.	.	.	.	.	.	.	.	.	.	12ccc	.	.	.	.	.	.	.	.	.
.	.	.	.	.	.	.	.	.	.	.	.	.	.	12bbJ	.	.	.	.	.	.	.	.	.
!	!	!	!	!	!	!	!	!	!	!	!	!	!	!LO:TX:a:t=problem:brak oznaczenia grupy niemiarowej	!	!	!	!	!	!	!	!	!
4A'	.	.	.	.	.	.	.	.	.	.	.	4a`\	.	12aaL	.	2r	.	2r	.	4a	.	4aa	.
.	.	.	.	.	.	.	.	.	.	.	.	.	.	12bb	.	.	.	.	.	.	.	.	.
.	.	.	.	.	.	.	.	.	.	.	.	.	.	12aaJ	.	.	.	.	.	.	.	.	.
!	!	!	!	!	!	!	!	!	!	!	!	!	!	!LO:TX:a:t=problem:brak oznaczenia grupy niemiarowej	!	!	!	!	!	!	!	!	!
4G'	.	.	.	.	.	.	.	.	.	.	.	4g`\	.	12ggL	.	.	.	.	.	4g	.	4gg	.
.	.	.	.	.	.	.	.	.	.	.	.	.	.	12aa	.	.	.	.	.	.	.	.	.
.	.	.	.	.	.	.	.	.	.	.	.	.	.	12ggJ	.	.	.	.	.	.	.	.	.
!	!	!	!	!	!	!	!	!	!	!	!	!	!	!	!	!	!	!	!	!LO:LB:g=original	!	!	!
=19	=19	=19	=19	=19	=19	=19	=19	=19	=19	=19	=19	=19	=19	=19	=19	=19	=19	=19	=19	=19	=19	=19	=19
!	!	!	!	!	!	!	!	!	!	!	!	!	!	!LO:TX:a:t=problem:brak oznaczenia grupy niemiarowej	!	!	!	!	!	!	!	!	!
4F#X`	.	.	1r	.	.	1r	.	.	1r	.	.	4f#X`	.	12ff#XL	.	1r	.	1r	.	4f#X	.	4ff#X	.
.	.	.	.	.	.	.	.	.	.	.	.	.	.	12gg	.	.	.	.	.	.	.	.	.
.	.	.	.	.	.	.	.	.	.	.	.	.	.	12ff#J	.	.	.	.	.	.	.	.	.
!	!	!	!	!	!	!	!	!	!	!	!	!	!	!LO:TX:a:t=problem:brak oznaczenia grupy niemiarowej	!	!	!	!	!	!	!	!	!
4E`	.	.	.	.	.	.	.	.	.	.	.	4e`	.	12eeL	.	.	.	.	.	4e	.	4ee	.
.	.	.	.	.	.	.	.	.	.	.	.	.	.	12ff#	.	.	.	.	.	.	.	.	.
.	.	.	.	.	.	.	.	.	.	.	.	.	.	12eeJ	.	.	.	.	.	.	.	.	.
!	!	!	!	!	!	!	!	!	!	!	!	!	!	!LO:TX:a:t=problem:brak oznaczenia grupy niemiarowej	!	!	!	!	!	!	!	!	!
4D`	.	.	.	.	.	.	.	.	.	.	.	4d`	.	12ddL	.	.	.	.	.	4d	.	4dd	.
.	.	.	.	.	.	.	.	.	.	.	.	.	.	12ee	.	.	.	.	.	.	.	.	.
.	.	.	.	.	.	.	.	.	.	.	.	.	.	12ddJ	.	.	.	.	.	.	.	.	.
!	!	!	!	!	!	!	!	!	!	!	!	!	!	!LO:TX:a:t=problem:brak oznaczenia grupy niemiarowej	!	!	!	!	!	!	!	!	!
4C`\	.	.	.	.	.	.	.	.	.	.	.	4c`	.	12ccL	.	.	.	.	.	4r	.	4r	.
.	.	.	.	.	.	.	.	.	.	.	.	.	.	12dd	.	.	.	.	.	.	.	.	.
.	.	.	.	.	.	.	.	.	.	.	.	.	.	12ccJ	.	.	.	.	.	.	.	.	.
!LO:LB:g=original	!	!	!	!	!	!	!	!	!	!	!	!	!	!	!	!	!	!	!	!	!	!	!
=20	=20	=20	=20	=20	=20	=20	=20	=20	=20	=20	=20	=20	=20	=20	=20	=20	=20	=20	=20	=20	=20	=20	=20
4BB	.	.	1r	.	.	1r	.	.	1r	.	.	4B	.	4b	.	1r	.	1r	.	4b	.	4bb	.
8DL	.	.	.	.	.	.	.	.	.	.	.	8dL	.	8ddL	.	.	.	.	.	8ddL	.	8dddL	.
8BBJ	.	.	.	.	.	.	.	.	.	.	.	8BJ	.	8bJ	.	.	.	.	.	8bJ	.	8bbJ	.
2GG	.	.	.	.	.	.	.	.	.	.	.	2G	.	2g	.	.	.	.	.	2g	.	2gg	.
!	!	!	!	!	!	!	!	!	!	!	!	!LO:LB:g=original	!	!	!	!	!	!	!	!	!	!	!
=21	=21	=21	=21	=21	=21	=21	=21	=21	=21	=21	=21	=21	=21	=21	=21	=21	=21	=21	=21	=21	=21	=21	=21
!LO:TX:a:t=Solo	!	!	!	!	!	!	!	!	!LO:TX:a:t=Solo	!	!	!	!	!	!	!	!	!	!	!	!	!	!
4GG	.	.	2G	Chri-	Do_na	2b	Chri-	Do_na	2dd	Chri-	Do_na	8gL	p	8bL	p	1r	.	1r	.	1r	.	1r	.
.	.	.	.	.	.	.	.	.	.	.	.	8a	.	8cc	.	.	.	.	.	.	.	.	.
4G	.	p	.	.	.	.	.	.	.	.	.	8b	.	8dd	.	.	.	.	.	.	.	.	.
.	.	.	.	.	.	.	.	.	.	.	.	8ccJ	.	8eeJ	.	.	.	.	.	.	.	.	.
4GG	.	.	4G	-ste	no-	4b	-ste	no-	4dd	-ste	no-	4d 4b	.	4dd	.	.	.	.	.	.	.	.	.
4G	.	.	4G	e-	-bis	4b	e-	-bis	4dd	e-	-bis	4d 4b	.	4dd	.	.	.	.	.	.	.	.	.
!	!	!	!	!	!	!	!	!	!	!	!	!	!	!LO:LB:g=original	!	!	!	!	!	!	!	!	!
=22	=22	=22	=22	=22	=22	=22	=22	=22	=22	=22	=22	=22	=22	=22	=22	=22	=22	=22	=22	=22	=22	=22	=22
4GG	.	.	2G	-lei-	pa-	2b	-lei-	pa-	2gg	-lei-	pa-	4d 4b	.	8ggL	.	1r	.	1r	.	1r	.	1r	.
.	.	.	.	.	.	.	.	.	.	.	.	.	.	8ff#X	.	.	.	.	.	.	.	.	.
4G	.	.	.	.	.	.	.	.	.	.	.	4d 4b	.	8gg	.	.	.	.	.	.	.	.	.
.	.	.	.	.	.	.	.	.	.	.	.	.	.	8bbJ	.	.	.	.	.	.	.	.	.
4G	.	.	2G	-son	-cem	2b	-son	-cem	2dd	-son	-cem	4d 4b	.	2dd	.	.	.	.	.	.	.	.	.
4G	.	.	.	.	.	.	.	.	.	.	.	4d 4b	.	.	.	.	.	.	.	.	.	.	.
=23	=23	=23	=23	=23	=23	=23	=23	=23	=23	=23	=23	=23	=23	=23	=23	=23	=23	=23	=23	=23	=23	=23	=23
4G	.	.	1r	.	.	1r	.	.	1r	.	.	4e 4cc	.	4ee	.	1r	.	1r	.	1r	.	1r	.
4G	.	.	.	.	.	.	.	.	.	.	.	4e 4cc	.	4ee	.	.	.	.	.	.	.	.	.
4G	.	.	.	.	.	.	.	.	.	.	.	(>8eeL	.	8ggL	.	.	.	.	.	.	.	.	.
.	.	.	.	.	.	.	.	.	.	.	.	8dd	.	8ff#X	.	.	.	.	.	.	.	.	.
4G	.	.	.	.	.	.	.	.	.	.	.	8cc	.	8ee	.	.	.	.	.	.	.	.	.
.	.	.	.	.	.	.	.	.	.	.	.	8bJ)	.	8ddJ	.	.	.	.	.	.	.	.	.
=24	=24	=24	=24	=24	=24	=24	=24	=24	=24	=24	=24	=24	=24	=24	=24	=24	=24	=24	=24	=24	=24	=24	=24
4GG	.	.	1r	.	.	1r	.	.	1r	.	.	(>8bL	.	8ddL	.	1r	.	1r	.	1r	.	1r	.
.	.	.	.	.	.	.	.	.	.	.	.	8cc	.	8ee	.	.	.	.	.	.	.	.	.
4G	.	.	.	.	.	.	.	.	.	.	.	8b	.	8dd	.	.	.	.	.	.	.	.	.
.	.	.	.	.	.	.	.	.	.	.	.	8aJ)	.	8ccJ	.	.	.	.	.	.	.	.	.
4GG	.	.	.	.	.	.	.	.	.	.	.	2g	.	2b	.	.	.	.	.	.	.	.	.
4G	.	.	.	.	.	.	.	.	.	.	.	.	.	.	.	.	.	.	.	.	.	.	.
=25	=25	=25	=25	=25	=25	=25	=25	=25	=25	=25	=25	=25	=25	=25	=25	=25	=25	=25	=25	=25	=25	=25	=25
4G	.	.	4G	Ky-	Do-	8gL	Ky-	Do-	8bL	Ky-	Do-	(<8gL	.	8bL	.	1r	.	1r	.	1r	.	1r	.
.	.	.	.	.	.	8aJ	.	.	8ccJ	.	.	8a	.	8cc	.	.	.	.	.	.	.	.	.
4G	.	.	4G	-ri-	-na	8bL	-ri-	-na	8ddL	-ri-	-na	8b	.	8dd	.	.	.	.	.	.	.	.	.
.	.	.	.	.	.	8ccJ	.	.	8eeJ	.	.	8ccJ)	.	8eeJ	.	.	.	.	.	.	.	.	.
!	!	!	!	!	!	!	!	!	!LO:LB:g=original	!	!	!	!	!	!	!	!	!	!	!	!	!	!
4G	.	.	4G	-e	no-	4b	-e	no-	4dd	-e	no-	4d 4b	.	8ddL	.	.	.	.	.	.	.	.	.
.	.	.	.	.	.	.	.	.	.	.	.	.	.	8cc	.	.	.	.	.	.	.	.	.
4G	.	.	4G	e-	-bis	4b	e-	-bis	4dd	e-	-bis	4d 4b	.	8dd	.	.	.	.	.	.	.	.	.
.	.	.	.	.	.	.	.	.	.	.	.	.	.	8bJ	.	.	.	.	.	.	.	.	.
!	!	!	!LO:LB:g=original	!	!	!LO:LB:g=original	!	!	!	!	!	!	!	!	!	!	!	!	!	!	!	!	!
=26	=26	=26	=26	=26	=26	=26	=26	=26	=26	=26	=26	=26	=26	=26	=26	=26	=26	=26	=26	=26	=26	=26	=26
4G	.	.	2G	-lei-	pa-	2b	-lei-	pa-	2gg	-lei-	pa-	4d 4b	.	4gg	.	1r	.	1r	.	1r	.	1r	.
4G	.	.	.	.	.	.	.	.	.	.	.	4d 4b	.	8ggL	.	.	.	.	.	.	.	.	.
.	.	.	.	.	.	.	.	.	.	.	.	.	.	8bbJ	.	.	.	.	.	.	.	.	.
4GG	.	.	2G	-son	-cem	2b	-son	-cem	2dd	-son	-cem	4d 4b	.	2dd	.	.	.	.	.	.	.	.	.
4G	.	.	.	.	.	.	.	.	.	.	.	4d 4b	.	.	.	.	.	.	.	.	.	.	.
!LO:LB:g=original	!	!	!	!	!	!	!	!	!	!	!	!LO:LB:g=original	!	!	!	!	!	!	!	!	!	!	!
=27	=27	=27	=27	=27	=27	=27	=27	=27	=27	=27	=27	=27	=27	=27	=27	=27	=27	=27	=27	=27	=27	=27	=27
4c	.	.	2c	Chri-	Do_na	2g	Chri-	Do_na	2ee	Chri-	Do_na	4cc	.	4ee	.	1r	.	1r	.	1r	.	1r	.
4c	.	.	.	.	.	.	.	.	.	.	.	8eeL	.	8cccL	.	.	.	.	.	.	.	.	.
.	.	.	.	.	.	.	.	.	.	.	.	8ccJ	.	8aaJ	.	.	.	.	.	.	.	.	.
4d	5 4	.	4d	-ste	no-	4g	-ste	no-	4b	-ste	no-	(>8bL	.	8ggL	.	.	.	.	.	.	.	.	.
.	.	.	.	.	.	.	.	.	.	.	.	8cc)	.	8aa	.	.	.	.	.	.	.	.	.
4D	#	.	4D/	e-	-bis	4f#X	e-	-bis	4a	e-	-bis	(>8a	.	8ff#X	.	.	.	.	.	.	.	.	.
.	.	.	.	.	.	.	.	.	.	.	.	8ccJ)	.	8aaJ	.	.	.	.	.	.	.	.	.
!	!	!	!	!	!	!	!	!	!	!	!	!LO:LB:g=original	!	!LO:LB:g=original	!	!	!	!	!	!	!	!	!
=28	=28	=28	=28	=28	=28	=28	=28	=28	=28	=28	=28	=28	=28	=28	=28	=28	=28	=28	=28	=28	=28	=28	=28
4G	.	.	2G	-lei-	pa-	2d	-lei-	pa-	2cc	-lei-	pa-	(>8ccL	.	2aa	.	1r	.	1r	.	1r	.	1r	.
.	.	.	.	.	.	.	.	.	.	.	.	8dd)	.	.	.	.	.	.	.	.	.	.	.
4D	.	.	.	.	.	.	.	.	.	.	.	(>8cc	.	.	.	.	.	.	.	.	.	.	.
.	.	.	.	.	.	.	.	.	.	.	.	8ddJ)	.	.	.	.	.	.	.	.	.	.	.
4BB	.	.	2G	-son	-cem	2d	-son	-cem	2b	-son	-cem	4d 4b	.	2gg	.	.	.	.	.	.	.	.	.
4D	.	.	.	.	.	.	.	.	.	.	.	4d 4b	.	.	.	.	.	.	.	.	.	.	.
=29	=29	=29	=29	=29	=29	=29	=29	=29	=29	=29	=29	=29	=29	=29	=29	=29	=29	=29	=29	=29	=29	=29	=29
4GG	.	p	2G	Chri-	Do_na	2b	Chri-	Do_na	2dd	Chri-	Do_na	8gL	p	8bL	p	1r	.	1r	.	8gL	p	(>8bL	p
.	.	.	.	.	.	.	.	.	.	.	.	8a	.	8cc	.	.	.	.	.	8a	.	8cc)	.
4G	.	.	.	.	.	.	.	.	.	.	.	8b	.	8dd	.	.	.	.	.	8b	.	(>8dd	.
.	.	.	.	.	.	.	.	.	.	.	.	8ccJ	.	8eeJ	.	.	.	.	.	8ccJ	.	8eeJ)	.
4GG	.	.	4G	-ste	no-	4b	-ste	no-	4dd	-ste	no-	4d 4b	.	4dd	.	.	.	.	.	4b/	.	4dd	.
4G	.	.	4G	e-	-bis	4b	e-	-bis	4dd	e-	-bis	4d 4b	.	4dd	.	.	.	.	.	4b/	.	4dd	.
=30	=30	=30	=30	=30	=30	=30	=30	=30	=30	=30	=30	=30	=30	=30	=30	=30	=30	=30	=30	=30	=30	=30	=30
4GG	.	.	2G	-lei-	pa-	2b	-lei-	pa-	2gg	-lei-	pa-	4d 4b	.	8ggL	.	1r	.	1r	.	4b/	.	(>8ggL	.
.	.	.	.	.	.	.	.	.	.	.	.	.	.	8ff#X	.	.	.	.	.	.	.	8ff#X	.
4G	.	.	.	.	.	.	.	.	.	.	.	4d 4b	.	8gg	.	.	.	.	.	4b/	.	8gg	.
.	.	.	.	.	.	.	.	.	.	.	.	.	.	8bbJ	.	.	.	.	.	.	.	8bbJ)	.
4G	.	.	2G	-son	-cem	2b	-son	-cem	2dd	-son	-cem	4d 4b	.	2dd	.	.	.	.	.	2b/	.	2dd	.
4G	.	.	.	.	.	.	.	.	.	.	.	4d 4b	.	.	.	.	.	.	.	.	.	.	.
=31	=31	=31	=31	=31	=31	=31	=31	=31	=31	=31	=31	=31	=31	=31	=31	=31	=31	=31	=31	=31	=31	=31	=31
4G	.	.	1r	.	.	1r	.	.	1r	.	.	4e 4cc	.	4ee	.	1r	.	1r	.	4cc	.	4ee	.
4G	.	.	.	.	.	.	.	.	.	.	.	4e 4cc	.	4ee	.	.	.	.	.	4cc	.	4ee	.
!	!	!	!	!	!	!	!	!	!	!	!	!	!	!	!	!	!	!	!	!	!	!LO:LB:g=original	!
4G	.	.	.	.	.	.	.	.	.	.	.	(>8eeL	.	8ggL	.	.	.	.	.	8eeL	.	8ggL	.
.	.	.	.	.	.	.	.	.	.	.	.	8dd	.	8ff#X	.	.	.	.	.	8dd	.	8ff#X	.
4G	.	.	.	.	.	.	.	.	.	.	.	8cc	.	8ee	.	.	.	.	.	8cc	.	8ee	.
.	.	.	.	.	.	.	.	.	.	.	.	8bJ)	.	8ddJ	.	.	.	.	.	8bJ	.	8ddJ	.
=32	=32	=32	=32	=32	=32	=32	=32	=32	=32	=32	=32	=32	=32	=32	=32	=32	=32	=32	=32	=32	=32	=32	=32
4GG	.	.	1r	.	.	1r	.	.	1r	.	.	(>8bL	.	8ddL	.	1r	.	1r	.	8bL	.	8ddL	.
.	.	.	.	.	.	.	.	.	.	.	.	8cc	.	8ee	.	.	.	.	.	8cc	.	8ee	.
4G	.	.	.	.	.	.	.	.	.	.	.	8b	.	8dd	.	.	.	.	.	8b	.	8dd	.
.	.	.	.	.	.	.	.	.	.	.	.	8aJ)	.	8ccJ	.	.	.	.	.	8aJ	.	8ccJ	.
!	!	!	!	!	!	!	!	!	!	!	!	!	!	!	!	!	!	!	!	!LO:LB:g=original	!	!	!
4GG	.	.	.	.	.	.	.	.	.	.	.	2g	.	2b	.	.	.	.	.	2g	.	2b	.
4G	.	.	.	.	.	.	.	.	.	.	.	.	.	.	.	.	.	.	.	.	.	.	.
!	!	!	!LO:LB:g=original	!	!	!	!	!	!LO:LB:g=original	!	!	!	!	!	!	!	!	!	!	!	!	!	!
=33	=33	=33	=33	=33	=33	=33	=33	=33	=33	=33	=33	=33	=33	=33	=33	=33	=33	=33	=33	=33	=33	=33	=33
4G	.	.	4G	Ky-	Do-	8gL	Ky-	Do-	8bL	Ky-	Do-	(<8gL	.	8bL	.	1r	.	1r	.	8gL	.	8bL	.
.	.	.	.	.	.	8aJ	.	.	8ccJ	.	.	8a	.	8cc	.	.	.	.	.	8a	.	8cc	.
4G	.	.	4G	-ri-	-na	8bL	-ri-	-na	8ddL	-ri-	-na	8b	.	8dd	.	.	.	.	.	8b	.	8dd	.
.	.	.	.	.	.	8ccJ	.	.	8eeJ	.	.	8ccJ)	.	8eeJ	.	.	.	.	.	8ccJ	.	8eeJ	.
4G	.	.	4G	-e	no-	4b	-e	no-	4dd	-e	no-	4d 4b	.	8ddL	.	.	.	.	.	4b/	.	8ddL	.
.	.	.	.	.	.	.	.	.	.	.	.	.	.	8cc	.	.	.	.	.	.	.	8cc	.
4G	.	.	4G	e-	-bis	4b	e-	-bis	4dd	e-	-bis	4d 4b	.	8dd	.	.	.	.	.	4g	.	8dd	.
.	.	.	.	.	.	.	.	.	.	.	.	.	.	8bJ	.	.	.	.	.	.	.	8bJ	.
!LO:LB:g=original	!	!	!	!	!	!LO:LB:g=original	!	!	!	!	!	!	!	!	!	!	!	!	!	!	!	!	!
=34	=34	=34	=34	=34	=34	=34	=34	=34	=34	=34	=34	=34	=34	=34	=34	=34	=34	=34	=34	=34	=34	=34	=34
4G	.	.	2G	-lei-	pa-	2b	-lei-	pa-	2gg	-lei-	pa-	4d 4b	.	4gg	.	1r	.	1r	.	4b/	.	4gg	.
4G	.	.	.	.	.	.	.	.	.	.	.	4d 4b	.	8ggL	.	.	.	.	.	4b/	.	8ggL	.
.	.	.	.	.	.	.	.	.	.	.	.	.	.	8bbJ	.	.	.	.	.	.	.	8bbJ	.
4GG	.	.	2G	-son	-cem	2b	-son	-cem	2dd	-son	-cem	4d 4b	.	2dd	.	.	.	.	.	2b/	.	2dd	.
4G	.	.	.	.	.	.	.	.	.	.	.	4d 4b	.	.	.	.	.	.	.	.	.	.	.
!	!	!	!	!	!	!	!	!	!	!	!	!LO:LB:g=original	!	!LO:LB:g=original	!	!	!	!	!	!	!	!	!
=35	=35	=35	=35	=35	=35	=35	=35	=35	=35	=35	=35	=35	=35	=35	=35	=35	=35	=35	=35	=35	=35	=35	=35
4c	.	.	2c	Chri-	Do_na	2g	Chri-	Do_na	2ee	Chri-	Do_na	4cc	.	4ee	.	1r	.	1r	.	2cc	.	4ee	.
4c	.	.	.	.	.	.	.	.	.	.	.	8eeL	.	8cccL	.	.	.	.	.	.	.	8cccL	.
.	.	.	.	.	.	.	.	.	.	.	.	8ccJ	.	8aaJ	.	.	.	.	.	.	.	8aaJ	.
4d	6 4	.	4d	-ste	no-	4g	-ste	no-	4b	-ste	no-	(>8bL	.	8ggL	.	.	.	.	.	8bL	.	8ggL	.
.	.	.	.	.	.	.	.	.	.	.	.	8cc)	.	8aa	.	.	.	.	.	8cc	.	8aa	.
4D	#	.	4D/	e-	-bis	4f#X	e-	-bis	4a	e-	-bis	(>8a	.	8ff#X	.	.	.	.	.	8a	.	8ff#X	.
.	.	.	.	.	.	.	.	.	.	.	.	8ccJ)	.	8aaJ	.	.	.	.	.	8ccJ	.	8aaJ	.
=36	=36	=36	=36	=36	=36	=36	=36	=36	=36	=36	=36	=36	=36	=36	=36	=36	=36	=36	=36	=36	=36	=36	=36
!	!	!	!	!	!	!	!	!	!	!	!	!	!	!	!	!LO:TX:a:t=problem:brakujący pusty takt	!	!	!	!	!	!	!
4G'	.	.	2G	-lei-	pa-	2d	-lei-	pa-	2cc	-lei-	pa-	(>8ccL	.	2aa	.	1ryy	.	1r	.	(>2cc	.	(>2aa	.
.	.	.	.	.	.	.	.	.	.	.	.	8dd)	.	.	.	.	.	.	.	.	.	.	.
4D'	.	.	.	.	.	.	.	.	.	.	.	(>8cc	.	.	.	.	.	.	.	.	.	.	.
.	.	.	.	.	.	.	.	.	.	.	.	8ddJ)	.	.	.	.	.	.	.	.	.	.	.
4BB	.	.	2G	-son	-cem	2d	-son	-cem	2b	-son	-cem	4d 4b	.	2gg	.	.	.	.	.	4b)	.	4gg)	.
4D	.	.	.	.	.	.	.	.	.	.	.	4d 4b	.	.	.	.	.	.	.	4r	.	4r	.
!	!	!	!	!	!	!	!	!	!	!	!	!	!	!	!	!	!	!	!	!	!	!LO:LB:g=original	!
=37	=37	=37	=37	=37	=37	=37	=37	=37	=37	=37	=37	=37	=37	=37	=37	=37	=37	=37	=37	=37	=37	=37	=37
!LO:TX:a:t=Tutti	!	!	!	!	!	!	!	!	!	!	!	!	!	!	!	!	!	!	!	!	!	!	!
4G	.	.	4G	Ky-	Do-	4b	Ky-	Do-	4dd	Ky-	Do-	4d 4b	f	8ddL	f	2g	f	2g	f	1r	.	1r	.
.	.	.	.	.	.	.	.	.	.	.	.	.	.	8gg	.	.	.	.	.	.	.	.	.
4G	.	.	4G	-ri-	-na	4b	-ri-	-na	4dd	-ri-	-na	4d 4b	.	8bb	.	.	.	.	.	.	.	.	.
.	.	.	.	.	.	.	.	.	.	.	.	.	.	8ggJ	.	.	.	.	.	.	.	.	.
4A	6|	.	4A	-e	no-	4cc	-e	no-	4dd	-e	no-	4d 4a	.	8ff#XL	.	2dd	.	2dd	.	.	.	.	.
.	.	.	.	.	.	.	.	.	.	.	.	.	.	8aaJ	.	.	.	.	.	.	.	.	.
4A	.	.	4A	e-	-bis	4cc	e-	-bis	4dd	e-	-bis	4d 4a	.	4dd	.	.	.	.	.	.	.	.	.
!	!	!	!LO:LB:g=original	!	!	!	!	!	!	!	!	!	!	!	!	!	!	!	!	!	!	!	!
=38	=38	=38	=38	=38	=38	=38	=38	=38	=38	=38	=38	=38	=38	=38	=38	=38	=38	=38	=38	=38	=38	=38	=38
4G	.	.	4G	-lei-	pa-	4g	-lei-	pa-	4g	-lei-	pa-	4d 4b	.	4gg	.	2g	.	2g	.	4g	f	4gg	f
4G	.	.	4B	.	.	4b	.	.	4b	.	.	4d 4b	.	4bb	.	.	.	.	.	4b/	.	4bb	.
4GG	.	.	2d	-son	-cem	2dd	-son	-cem	2dd	-son	-cem	4d 4b	.	2ddd	.	2r	.	2r	.	2dd	.	2ddd	.
4G	.	.	.	.	.	.	.	.	.	.	.	4d 4b	.	.	.	.	.	.	.	.	.	.	.
!	!	!	!	!	!	!	!	!	!	!	!	!	!	!	!	!	!	!	!	!LO:LB:g=original	!	!	!
=39	=39	=39	=39	=39	=39	=39	=39	=39	=39	=39	=39	=39	=39	=39	=39	=39	=39	=39	=39	=39	=39	=39	=39
4d	#	.	2D/	Chri-	Do_na	2a	Chri-	Do_na	2cc	Chri-	Do_na	4d 4a	.	8dddL	.	1r	.	1r	.	1r	.	1r	.
.	.	.	.	.	.	.	.	.	.	.	.	.	.	8ccc	.	.	.	.	.	.	.	.	.
4d	.	.	.	.	.	.	.	.	.	.	.	4d 4a	.	8bb	.	.	.	.	.	.	.	.	.
.	.	.	.	.	.	.	.	.	.	.	.	.	.	8cccJ	.	.	.	.	.	.	.	.	.
!	!	!	!	!	!	!	!	!	!LO:LB:g=original	!	!	!	!	!	!	!	!	!	!	!	!	!	!
4D/	.	.	4d	-ste	no-	4g	-ste	no-	4a	-ste	no-	4d 4cc	.	8aaL	.	.	.	.	.	.	.	.	.
.	.	.	.	.	.	.	.	.	.	.	.	.	.	8ccc	.	.	.	.	.	.	.	.	.
4D/	.	.	4D/	e-	-bis	4f#X	e-	-bis	4f#X	e-	-bis	4d 4cc	.	8ff#X	.	.	.	.	.	.	.	.	.
.	.	.	.	.	.	.	.	.	.	.	.	.	.	8aaJ	.	.	.	.	.	.	.	.	.
=40	=40	=40	=40	=40	=40	=40	=40	=40	=40	=40	=40	=40	=40	=40	=40	=40	=40	=40	=40	=40	=40	=40	=40
4G	.	.	4G	-lei-	pa-	4g	-lei-	pa-	4g	-lei-	pa-	4d 4b	.	4gg	.	2G	.	2g	.	4g	.	4gg	.
4G	.	.	4B	.	.	4b	.	.	4b	.	.	4d 4b	.	4bb	.	.	.	.	.	4b/	.	4bb	.
4G	.	.	2d	-son	-cem	2dd	-son	-cem	2dd	-son	-cem	4d 4b	.	2ddd	.	2r	.	2r	.	2dd	.	2ddd	.
4G	.	.	.	.	.	.	.	.	.	.	.	4d 4b	.	.	.	.	.	.	.	.	.	.	.
!LO:LB:g=original	!	!	!	!	!	!LO:LB:g=original	!	!	!	!	!	!	!	!	!	!	!	!	!	!	!	!	!
=41	=41	=41	=41	=41	=41	=41	=41	=41	=41	=41	=41	=41	=41	=41	=41	=41	=41	=41	=41	=41	=41	=41	=41
4c	.	.	1r	.	.	1r	.	.	1r	.	.	4d 4cc	.	4eee	.	1r	.	1r	.	1r	.	1r	.
4c	.	.	.	.	.	.	.	.	.	.	.	4d 4cc	.	4ccc	.	.	.	.	.	.	.	.	.
4d	#	.	.	.	.	.	.	.	.	.	.	4d 4cc	.	4aa	.	.	.	.	.	.	.	.	.
4D	.	.	.	.	.	.	.	.	.	.	.	4d 4cc	.	4ff#X	.	.	.	.	.	.	.	.	.
!	!	!	!	!	!	!	!	!	!	!	!	!	!	!LO:LB:g=original	!	!	!	!	!	!	!	!	!
=42	=42	=42	=42	=42	=42	=42	=42	=42	=42	=42	=42	=42	=42	=42	=42	=42	=42	=42	=42	=42	=42	=42	=42
4G	.	.	1r	.	.	1r	.	.	1r	.	.	4d 4b	.	4gg	.	2G	.	2g	.	4g	.	4gg	.
4G	.	.	.	.	.	.	.	.	.	.	.	4d 4dd	.	4bb	.	.	.	.	.	4b	.	4bb	.
4GG	.	.	.	.	.	.	.	.	.	.	.	4d 4b	.	2gg	.	2G	.	2g	.	2g	.	2gg	.
4G	.	.	.	.	.	.	.	.	.	.	.	4d 4b	.	.	.	.	.	.	.	.	.	.	.
!	!	!	!	!	!	!	!	!	!	!	!	!LO:LB:g=original	!	!	!	!LO:LB:g=original	!	!	!	!	!	!	!
=43	=43	=43	=43	=43	=43	=43	=43	=43	=43	=43	=43	=43	=43	=43	=43	=43	=43	=43	=43	=43	=43	=43	=43
!LO:TX:a:t=Solo	!	!	!	!	!	!	!	!	!	!	!	!	!	!	!	!	!	!	!	!	!	!	!
*	*	*	*	*	*	*	*	*	*	*	*	*tremolo	*	*	*	*	*	*	*	*	*	*	*
4D	.	p	4F#X	Ky-	Do-	4f#X	Ky-	Do-	4f#X	Ky-	Do-	8dL 8cc	p	4ff#X	.	1r	.	1r	.	1r	.	1r	.
.	.	.	.	.	.	.	.	.	.	.	.	8d 8cc	.	.	.	.	.	.	.	.	.	.	.
4D	.	.	4A	-ri-	-na	4a	-ri-	-na	4a/	-ri-	-na	8d 8cc	.	4aa	.	.	.	.	.	.	.	.	.
.	.	.	.	.	.	.	.	.	.	.	.	8dJ 8cc	.	.	.	.	.	.	.	.	.	.	.
4D	.	.	4F#	-e	no-	4f#	-e	no-	4f#	-e	no-	8dL 8cc	.	4ff#	p	.	.	.	.	.	.	.	.
.	.	.	.	.	.	.	.	.	.	.	.	8d 8cc	.	.	.	.	.	.	.	.	.	.	.
4D	.	.	4D	e-	-bis	4d	e-	-bis	4d	e-	-bis	8d 8cc	.	4dd	.	.	.	.	.	.	.	.	.
.	.	.	.	.	.	.	.	.	.	.	.	8dJ 8cc	.	.	.	.	.	.	.	.	.	.	.
=44	=44	=44	=44	=44	=44	=44	=44	=44	=44	=44	=44	=44	=44	=44	=44	=44	=44	=44	=44	=44	=44	=44	=44
4G	.	.	4G	-lei-	pa-	4g	-lei-	pa-	4g	-lei-	pa-	8dL 8b	.	4gg	.	1r	.	1r	.	4g	p	4gg	p
.	.	.	.	.	.	.	.	.	.	.	.	8d 8b	.	.	.	.	.	.	.	.	.	.	.
4G	.	.	4B	.	.	4b	.	.	4b	.	.	8d 8b	.	4bb	.	.	.	.	.	4b/	.	4bb	.
.	.	.	.	.	.	.	.	.	.	.	.	8dJ 8b	.	.	.	.	.	.	.	.	.	.	.
4B	.	.	2d	-son	-cem	2dd	-son	-cem	2dd	-son	-cem	8dL 8b	.	2ddd	.	.	.	.	.	2dd	.	2ddd	.
.	.	.	.	.	.	.	.	.	.	.	.	8d 8b	.	.	.	.	.	.	.	.	.	.	.
4B	.	.	.	.	.	.	.	.	.	.	.	8d 8b	.	.	.	.	.	.	.	.	.	.	.
.	.	.	.	.	.	.	.	.	.	.	.	8dJ 8b	.	.	.	.	.	.	.	.	.	.	.
!	!	!	!LO:LB:g=original	!	!	!	!	!	!	!	!	!	!	!	!	!	!	!	!	!	!	!	!
=45	=45	=45	=45	=45	=45	=45	=45	=45	=45	=45	=45	=45	=45	=45	=45	=45	=45	=45	=45	=45	=45	=45	=45
4c	9	.	4d	Chri-	Do_na	4dd	Chri-	Do_na	(>4dd	Chri-	Do_na	8dL 8a	.	4ddd	.	1r	.	1r	.	1r	.	1r	.
.	.	.	.	.	.	.	.	.	.	.	.	8d 8a	.	.	.	.	.	.	.	.	.	.	.
4c	8	.	4c	.	.	4cc	.	.	4cc)	.	.	8d 8a	.	4ccc;	.	.	.	.	.	.	.	.	.
.	.	.	.	.	.	.	.	.	.	.	.	8dJ 8a	.	.	.	.	.	.	.	.	.	.	.
4d	5	.	4A	-ste	no-	4a	-ste	no-	4b	-ste	no-	8dL 8cc	.	(>4aa	.	.	.	.	.	.	.	.	.
.	.	.	.	.	.	.	.	.	.	.	.	8d 8cc	.	.	.	.	.	.	.	.	.	.	.
4D/	#	.	4F#X	e-	-bis	4f#X	e-	-bis	4f#X	e-	-bis	8d 8cc	.	4ff#X)	.	.	.	.	.	.	.	.	.
.	.	.	.	.	.	.	.	.	.	.	.	8dJ 8cc	.	.	.	.	.	.	.	.	.	.	.
*	*	*	*	*	*	*	*	*	*	*	*	*Xtremolo	*	*	*	*	*	*	*	*	*	*	*
!	!	!	!	!	!	!	!	!	!	!	!	!	!	!	!	!	!	!	!	!	!	!LO:LB:g=original	!
=46	=46	=46	=46	=46	=46	=46	=46	=46	=46	=46	=46	=46	=46	=46	=46	=46	=46	=46	=46	=46	=46	=46	=46
4G'	.	.	4G	-lei-	pa-	(>4g	-lei-	pa-	4g	-lei-	pa-	4g	.	4gg	.	1r	.	1r	.	4g	.	4gg	.
4B'	.	.	4B	.	.	4b)	.	.	4b	.	.	4b/	.	4bb	.	.	.	.	.	4b/	.	4bb	.
2D`	.	.	2D/	-son	-cem	2d	-son	-cem	2d	-son	-cem	2d	.	2dd	.	.	.	.	.	2d	.	2dd	.
!	!	!	!	!	!	!	!	!	!LO:LB:g=original	!	!	!	!	!	!	!	!	!	!	!	!	!	!
=47	=47	=47	=47	=47	=47	=47	=47	=47	=47	=47	=47	=47	=47	=47	=47	=47	=47	=47	=47	=47	=47	=47	=47
4D	.	.	1r	.	.	1r	.	.	1r	.	.	(<8f#XL	.	8ddL	.	1r	.	1r	.	1r	.	1r	.
.	.	.	.	.	.	.	.	.	.	.	.	8a)	.	8ff#XJ	.	.	.	.	.	.	.	.	.
4D	.	.	.	.	.	.	.	.	.	.	.	(<8f#	.	4cc 4aa	.	.	.	.	.	.	.	.	.
.	.	.	.	.	.	.	.	.	.	.	.	8aJ)	.	.	.	.	.	.	.	.	.	.	.
4D	.	.	.	.	.	.	.	.	.	.	.	(<8f#L	.	8ggL	.	.	.	.	.	.	.	.	.
.	.	.	.	.	.	.	.	.	.	.	.	8a)	.	8ff#	.	.	.	.	.	.	.	.	.
4D	.	.	.	.	.	.	.	.	.	.	.	(<8f#	.	8ee	.	.	.	.	.	.	.	.	.
.	.	.	.	.	.	.	.	.	.	.	.	8aJ)	.	8ddJ	.	.	.	.	.	.	.	.	.
!LO:LB:g=original	!	!	!	!	!	!	!	!	!	!	!	!	!	!	!	!	!	!	!	!	!	!	!
=48	=48	=48	=48	=48	=48	=48	=48	=48	=48	=48	=48	=48	=48	=48	=48	=48	=48	=48	=48	=48	=48	=48	=48
4G	.	.	1r	.	.	1r	.	.	1r	.	.	8dL	.	8ggL	.	1r	.	1r	.	8gL	.	8ggL	.
.	.	.	.	.	.	.	.	.	.	.	.	8b	.	8ff#X	.	.	.	.	.	8f#X	.	8ff#X	.
4G	.	.	.	.	.	.	.	.	.	.	.	8d	.	8gg	.	.	.	.	.	8g	.	8gg	.
.	.	.	.	.	.	.	.	.	.	.	.	8bJ	.	8bbJ	.	.	.	.	.	8bJ	.	8bbJ	.
!	!	!	!	!	!	!	!	!	!	!	!	!	!	!	!	!	!	!	!	!LO:LB:g=original	!	!	!
4B	.	.	.	.	.	.	.	.	.	.	.	8dL	.	2ddd	.	.	.	.	.	2dd	.	2ddd	.
.	.	.	.	.	.	.	.	.	.	.	.	8b	.	.	.	.	.	.	.	.	.	.	.
4B	.	.	.	.	.	.	.	.	.	.	.	8d	.	.	.	.	.	.	.	.	.	.	.
.	.	.	.	.	.	.	.	.	.	.	.	8bJ	.	.	.	.	.	.	.	.	.	.	.
=49	=49	=49	=49	=49	=49	=49	=49	=49	=49	=49	=49	=49	=49	=49	=49	=49	=49	=49	=49	=49	=49	=49	=49
4d	7	.	1r	.	.	1r	.	.	1r	.	.	4d 4a	.	8dddL	.	1r	.	1r	.	1r	.	4ddd	.
.	.	.	.	.	.	.	.	.	.	.	.	.	.	8ccc	.	.	.	.	.	.	.	.	.
4d	.	.	.	.	.	.	.	.	.	.	.	4d 4a	.	8bb	.	.	.	.	.	.	.	4ccc	.
.	.	.	.	.	.	.	.	.	.	.	.	.	.	8cccJ	.	.	.	.	.	.	.	.	.
4D/	#	.	.	.	.	.	.	.	.	.	.	4d 4cc	.	8aaL	.	.	.	.	.	.	.	4aa	.
.	.	.	.	.	.	.	.	.	.	.	.	.	.	8ccc	.	.	.	.	.	.	.	.	.
4D/	.	.	.	.	.	.	.	.	.	.	.	4d 4cc	.	8ff#X	.	.	.	.	.	.	.	4ff#X	.
.	.	.	.	.	.	.	.	.	.	.	.	.	.	8aaJ	.	.	.	.	.	.	.	.	.
!	!	!	!	!	!	!	!	!	!	!	!	!	!	!LO:LB:g=original	!	!	!	!	!	!	!	!	!
=50	=50	=50	=50	=50	=50	=50	=50	=50	=50	=50	=50	=50	=50	=50	=50	=50	=50	=50	=50	=50	=50	=50	=50
4G	.	.	2r	.	.	4r	.	.	2r	.	.	4d 4b	.	2.gg	.	1r	.	1r	.	4g	.	2gg	.
4D/	#	.	.	.	.	2r	.	.	.	.	.	4d 4b	.	.	.	.	.	.	.	4b/	.	.	.
4GG	.	.	4r	.	.	.	.	.	4r	.	.	4d 4b	.	.	.	.	.	.	.	2g	.	2r	.
4C	.	.	4c	e-	no-	4g	e-	no-	4ee	e-	no-	4e	.	4ee	f	.	.	.	.	.	.	.	.
!	!	!	!	!	!	!LO:LB:g=original	!	!	!	!	!	!LO:LB:g=original	!	!	!	!	!	!	!	!	!	!	!
=51	=51	=51	=51	=51	=51	=51	=51	=51	=51	=51	=51	=51	=51	=51	=51	=51	=51	=51	=51	=51	=51	=51	=51
!LO:TX:a:t=Tutti	!	!	!	!	!	!	!	!	!	!	!	!	!	!	!	!	!	!	!	!	!	!	!
4G	.	.	4d	-lei-	-bis	2g	-lei-	-bis_pa-	(>4ffn	-lei-	-bis	(<4fn	f	4ffn	.	2g	f	4ff	f	1r	.	1r	.
4G	.	.	4B	.	pa-	.	.	.	4dd)	.	pa-	4d)	.	4dd	.	.	.	4dd	.	.	.	.	.
4G	.	.	4G	-son	-cem	4g	-son	-cem	4b	-son	-cem	4B	.	4b/	.	2g	.	2g	.	.	.	.	.
4G	.	.	4r	.	.	4r	.	.	4r	.	.	4G	.	4g	.	.	.	.	.	.	.	.	.
!	!	!	!	!	!	!	!	!	!	!	!	!	!	!	!	!	!	!LO:LB:g=original	!	!	!	!	!
=52	=52	=52	=52	=52	=52	=52	=52	=52	=52	=52	=52	=52	=52	=52	=52	=52	=52	=52	=52	=52	=52	=52	=52
4c	.	.	2r	.	.	2r	.	.	2r	.	.	2.c	.	2.cc	.	2.c	.	2.cc	.	2r	.	2r	.
4G	.	.	.	.	.	.	.	.	.	.	.	.	.	.	.	.	.	.	.	.	.	.	.
4E	.	.	4r	.	.	4r	.	.	4r	.	.	.	.	.	.	.	.	.	.	4r	.	4r	.
!	!	!	!LO:LB:g=original	!	!	!	!	!	!	!	!	!	!	!	!	!	!	!	!	!	!	!	!
4C\	.	.	(>4c	Chri-	Do-	4g	e-	Do-	4ee	Chri-	Do-	4e	.	4ee	.	4c	.	4ee	.	4e	f	4ee	f
=53	=53	=53	=53	=53	=53	=53	=53	=53	=53	=53	=53	=53	=53	=53	=53	=53	=53	=53	=53	=53	=53	=53	=53
4G	7_	.	)4d(	.	-na	2g	-lei-	-na	(>4ff	-ste-	-na	4f	.	4ff	.	2g	.	4ff	.	4f	.	4ffn	.
4G	.	.	4B)	.	.	.	.	.	4dd)	.	.	4d	.	4dd	.	.	.	4dd	.	4d	.	4dd	.
4G	x	.	4G	-ste-	no-	2g	-son	no_bis	(>4b	-e-	no-	4B	.	4b/	.	2g	.	2g	.	4B	.	4b/	.
4G	.	.	4G	-e-	-bis	.	.	.	4g/)	.	-bis	4G	.	4g	.	.	.	.	.	4g	.	4g	.
=54	=54	=54	=54	=54	=54	=54	=54	=54	=54	=54	=54	=54	=54	=54	=54	=54	=54	=54	=54	=54	=54	=54	=54
4C`	.	.	(>4C	-lei-	pa-	4c	Ky-	pa-	(>4cc	-lei-	pa-	4c	.	4cc	.	4c	.	4cc	.	4c	.	4cc	.
4E`	.	.	4E)	.	.	4e	-ri-	.	4ee)	.	.	4e	.	4ee	.	4e	.	4ee	.	4e	.	4ee	.
4G`	.	.	4G	-son	-cem	4g	-e	-cem	4gg	-son	-cem	4g	.	4gg	.	4g	.	4gg	.	4g	.	4gg	.
4E`	.	.	4r	.	.	4r	.	.	4r	.	.	4e 4g	.	8ddL	.	4r	.	4r	.	4r	.	4r	.
.	.	.	.	.	.	.	.	.	.	.	.	.	.	8eeJ	.	.	.	.	.	.	.	.	.
!LO:LB:g=original	!	!	!	!	!	!	!	!	!	!	!	!	!	!	!	!	!	!	!	!	!	!LO:LB:g=original	!
=55	=55	=55	=55	=55	=55	=55	=55	=55	=55	=55	=55	=55	=55	=55	=55	=55	=55	=55	=55	=55	=55	=55	=55
4F'	.	.	4F	Ky-	Do-	4dd	Ky-	Do-	4ff	Ky-	Do-	4f	.	8ffL	.	2g	.	4ff	.	1r	.	1r	.
.	.	.	.	.	.	.	.	.	.	.	.	.	.	8ee	.	.	.	.	.	.	.	.	.
4D'	.	.	4d	-ri-	-na	4dd	-ri-	-na	4dd	-ri-	-na	4d	.	8ff	.	.	.	4dd	.	.	.	.	.
.	.	.	.	.	.	.	.	.	.	.	.	.	.	8ddJ	.	.	.	.	.	.	.	.	.
!	!	!	!	!	!	!	!	!	!LO:LB:g=original	!	!	!	!	!	!	!	!	!	!	!	!	!	!
4BB'	.	.	4B	-e	no-	4b	-e	no-	4b	-e	no-	4B	.	8bL	.	2g	.	2g	.	.	.	.	.
.	.	.	.	.	.	.	.	.	.	.	.	.	.	8a	.	.	.	.	.	.	.	.	.
4GG'	.	.	4G	e-	-bis	4g	e-	-bis	4g	e-	-bis	4G	.	8b	.	.	.	.	.	.	.	.	.
.	.	.	.	.	.	.	.	.	.	.	.	.	.	8gJ	.	.	.	.	.	.	.	.	.
=56	=56	=56	=56	=56	=56	=56	=56	=56	=56	=56	=56	=56	=56	=56	=56	=56	=56	=56	=56	=56	=56	=56	=56
!LO:TX:a:t=problem:znak zamazany	!	!	!	!	!	!	!	!	!	!	!	!	!	!	!	!	!	!	!	!	!	!	!
8qqc/	.	.	.	.	.	.	.	.	.	.	.	.	.	.	.	.	.	.	.	.	.	.	.
4c	.	.	4c	-lei-	pa-	4cc	-lei-	pa-	4cc	-lei-	pa-	4G 4e	p	2.cc	p	4e	.	4cc	.	1r	.	1r	.
8GL	.	.	4G	.	.	4ee	.	.	4ee	.	.	4G 4e	.	.	.	4r	.	4r	.	.	.	.	.
8EJ	.	.	.	.	.	.	.	.	.	.	.	.	.	.	.	.	.	.	.	.	.	.	.
4C	.	.	4C	-son	-cem	2cc	-son	-cem	4cc	-son	-cem	4G 4e	.	.	.	2r	.	2r	.	.	.	.	.
4r	.	.	4r	.	.	.	.	.	4r	.	.	4r	.	8ccL	.	.	.	.	.	.	.	.	.
.	.	.	.	.	.	.	.	.	.	.	.	.	.	8ddJ	.	.	.	.	.	.	.	.	.
!	!	!	!	!	!	!	!	!	!	!	!	!	!	!LO:LB:g=original	!	!	!	!	!	!	!	!	!
=57	=57	=57	=57	=57	=57	=57	=57	=57	=57	=57	=57	=57	=57	=57	=57	=57	=57	=57	=57	=57	=57	=57	=57
!LO:TX:a:t=Solo	!	!	!	!	!	!	!	!	!	!	!	!	!	!	!	!	!	!	!	!	!	!	!
8CL/	.	.	4c	Ky-	Do-	4cc	Ky-	Do-	4ee	Ky-	Do-	4G 4g	.	4ee	.	1r	.	1r	.	1r	.	1r	.
8c\	.	p	.	.	.	.	.	.	.	.	.	.	.	.	.	.	.	.	.	.	.	.	.
8C/	.	.	4c	-ri-	-na	4cc	-ri-	-na	4ee	-ri-	-na	2G 2g	.	2ff	.	.	.	.	.	.	.	.	.
8cJ\	.	.	.	.	.	.	.	.	.	.	.	.	.	.	.	.	.	.	.	.	.	.	.
!LO:TX:a:t=problem:połowa taktu powtórzona znakiem ÷	!	!	!	!	!	!	!	!	!	!	!	!LO:LB:g=original	!	!	!	!	!	!	!	!	!	!	!
8CL/	.	.	4c	-e	no-	4cc	-e	no-	4ee	-e	no-	.	.	.	.	.	.	.	.	.	.	.	.
8c\	.	.	.	.	.	.	.	.	.	.	.	.	.	.	.	.	.	.	.	.	.	.	.
8C/	.	.	4C	e-	-bis	8ddL	e-	-bis	8ffL	e-	-bis	4G 4g	.	8ffL	.	.	.	.	.	.	.	.	.
8cJ\	.	.	.	.	.	8ccJ	.	.	8eeJ	.	.	.	.	8eeJ	.	.	.	.	.	.	.	.	.
!	!	!	!	!	!	!LO:LB:g=original	!	!	!	!	!	!	!	!	!	!	!	!	!	!	!	!	!
=58	=58	=58	=58	=58	=58	=58	=58	=58	=58	=58	=58	=58	=58	=58	=58	=58	=58	=58	=58	=58	=58	=58	=58
8GGL/	.	.	2G	-lei-	pa-	(>4cc	-lei-	pa-	(>4ee	-lei-	pa-	(>4cc	.	(>4ee	.	1r	.	1r	.	1r	.	1r	.
8G\	.	.	.	.	.	.	.	.	.	.	.	.	.	.	.	.	.	.	.	.	.	.	.
8GG/	.	.	.	.	.	4b)	.	.	4dd)	.	.	4b)	.	4dd)	.	.	.	.	.	.	.	.	.
8GJ\	.	.	.	.	.	.	.	.	.	.	.	.	.	.	.	.	.	.	.	.	.	.	.
!LO:TX:a:t=problem:połowa taktu powtórzona znakiem ÷	!	!	!	!	!	!	!	!	!	!	!	!	!	!	!	!	!	!	!	!	!	!	!
8GGL/	.	.	4G	-son	-cem	4b	-son	-cem	4dd	-son	-cem	4b	.	4dd`	.	.	.	.	.	.	.	.	.
8G\	.	.	.	.	.	.	.	.	.	.	.	.	.	.	.	.	.	.	.	.	.	.	.
8GG/	.	.	4r	.	.	4r	.	.	4r	.	.	8bL	.	8ddL	.	.	.	.	.	.	.	.	.
8GJ\	.	.	.	.	.	.	.	.	.	.	.	8ccJ	.	8eeJ	.	.	.	.	.	.	.	.	.
=59	=59	=59	=59	=59	=59	=59	=59	=59	=59	=59	=59	=59	=59	=59	=59	=59	=59	=59	=59	=59	=59	=59	=59
8GGL/	.	.	2G	Chri-	Do_na	2dd	Chri-	Do_na	2ff	Chri-	Do_na	4dd	.	4ff	.	1r	.	1r	.	1r	.	1r	.
8G\	.	.	.	.	.	.	.	.	.	.	.	.	.	.	.	.	.	.	.	.	.	.	.
8GG/	.	.	.	.	.	.	.	.	.	.	.	2dd	.	2ff	.	.	.	.	.	.	.	.	.
8GJ\	.	.	.	.	.	.	.	.	.	.	.	.	.	.	.	.	.	.	.	.	.	.	.
!LO:TX:a:t=problem:połowa taktu powtórzona znakiem ÷	!	!	!	!	!	!	!	!	!	!	!	!	!	!	!	!	!	!	!	!	!	!	!
8GGL/	.	.	4B	-ste	no-	4dd	-ste	no-	4ff	-ste	no-	.	.	.	.	.	.	.	.	.	.	.	.
8G\	.	.	.	.	.	.	.	.	.	.	.	.	.	.	.	.	.	.	.	.	.	.	.
8GG/	.	.	4B	e-	-bis	8eeL	e-	-bis	8ggL	e-	-bis	8eeL	.	8ggL	.	.	.	.	.	.	.	.	.
8GJ\	.	.	.	.	.	8ddJ	.	.	8ffJ	.	.	8ddJ	.	8ffJ	.	.	.	.	.	.	.	.	.
!	!	!	!	!	!	!	!	!	!	!	!	!LO:LB:g=original	!	!	!	!	!	!	!	!	!	!	!
=60	=60	=60	=60	=60	=60	=60	=60	=60	=60	=60	=60	=60	=60	=60	=60	=60	=60	=60	=60	=60	=60	=60	=60
8CL/	4 2	.	4c	-lei-	pa-	(>4dd	-lei-	pa-	(>4ff	-lei-	pa-	4dd	.	(>4ff	.	1r	.	1r	.	1r	.	1r	.
8c\	.	.	.	.	.	.	.	.	.	.	.	.	.	.	.	.	.	.	.	.	.	.	.
8C/	3 5	.	4C	.	.	4cc)	.	.	4ee)	.	.	4cc	.	4ee)	.	.	.	.	.	.	.	.	.
8cJ\	.	.	.	.	.	.	.	.	.	.	.	.	.	.	.	.	.	.	.	.	.	.	.
4C	.	.	4C	-son	-cem	4cc	-son	-cem	4ee	-son	-cem	4cc	.	4ee`	.	.	.	.	.	.	.	.	.
4r	.	.	4r	.	.	4r	.	.	4r	.	.	8ccL	.	8eeL	.	.	.	.	.	.	.	.	.
.	.	.	.	.	.	.	.	.	.	.	.	8ddJ	.	8ffJ	.	.	.	.	.	.	.	.	.
!LO:LB:g=original	!	!	!	!	!	!	!	!	!LO:LB:g=original	!	!	!	!	!	!	!	!	!	!	!	!	!	!
=61	=61	=61	=61	=61	=61	=61	=61	=61	=61	=61	=61	=61	=61	=61	=61	=61	=61	=61	=61	=61	=61	=61	=61
2c	.	.	1r	.	.	1r	.	.	1r	.	.	2cc 2ee	.	(>8ggL	.	1r	.	1r	.	1r	.	1r	.
.	.	.	.	.	.	.	.	.	.	.	.	.	.	8ee)	.	.	.	.	.	.	.	.	.
.	.	.	.	.	.	.	.	.	.	.	.	.	.	(>8aa	.	.	.	.	.	.	.	.	.
.	.	.	.	.	.	.	.	.	.	.	.	.	.	8ggJ)	.	.	.	.	.	.	.	.	.
8cL	3	.	.	.	.	.	.	.	.	.	.	(>8eeL	.	2gg	.	.	.	.	.	.	.	.	.
8B	3	.	.	.	.	.	.	.	.	.	.	8dd)	.	.	.	.	.	.	.	.	.	.	.
8d	3	.	.	.	.	.	.	.	.	.	.	(>8ff	.	.	.	.	.	.	.	.	.	.	.
8cJ	3	.	.	.	.	.	.	.	.	.	.	8eeJ)	.	.	.	.	.	.	.	.	.	.	.
=62	=62	=62	=62	=62	=62	=62	=62	=62	=62	=62	=62	=62	=62	=62	=62	=62	=62	=62	=62	=62	=62	=62	=62
2c	3	.	1r	.	.	1r	.	.	1r	.	.	2cc 2ee	.	8ggL	.	1r	.	1r	.	1r	.	1r	.
.	.	.	.	.	.	.	.	.	.	.	.	.	.	8ee	.	.	.	.	.	.	.	.	.
.	.	.	.	.	.	.	.	.	.	.	.	.	.	8aa	.	.	.	.	.	.	.	.	.
.	.	.	.	.	.	.	.	.	.	.	.	.	.	8ggJ	.	.	.	.	.	.	.	.	.
!LO:TX:a:t=problem:niewyraźne b.c.	!	!	!	!	!	!	!	!	!	!	!	!	!	!	!	!	!	!	!	!	!	!	!
8cL	3	.	.	.	.	.	.	.	.	.	.	(>8eeL	.	2gg	.	.	.	.	.	.	.	.	.
8B	3	.	.	.	.	.	.	.	.	.	.	8cc)	.	.	.	.	.	.	.	.	.	.	.
8d	3	.	.	.	.	.	.	.	.	.	.	(>8ff	.	.	.	.	.	.	.	.	.	.	.
8cJ	3	.	.	.	.	.	.	.	.	.	.	8eeJ)	.	.	.	.	.	.	.	.	.	.	.
!	!	!	!	!	!	!	!	!	!	!	!	!	!	!LO:LB:g=original	!	!	!	!	!	!	!	!	!
=63	=63	=63	=63	=63	=63	=63	=63	=63	=63	=63	=63	=63	=63	=63	=63	=63	=63	=63	=63	=63	=63	=63	=63
4c	.	.	4r	.	.	4r	.	.	4r	.	.	4ee	.	8ggL	.	1r	.	1r	.	1r	.	1r	.
.	.	.	.	.	.	.	.	.	.	.	.	.	.	8ee	.	.	.	.	.	.	.	.	.
4E	6	.	(>4E	e-	no-	4cc	e-	no-	4ee	e-	no-	4G 4g	.	8ee	.	.	.	.	.	.	.	.	.
.	.	.	.	.	.	.	.	.	.	.	.	.	.	8ccJ	.	.	.	.	.	.	.	.	.
4F	6	.	4F	-lei-	-bis	4a	-lei-	-bis	8ffL	-lei-	-bis	4a	.	8ffL	.	.	.	.	.	.	.	.	.
.	.	.	.	.	.	.	.	.	8ddJ	.	.	.	.	8dd	.	.	.	.	.	.	.	.	.
4G	.	.	4G)	.	pa-	4d	.	pa-	8ddL	.	pa-	4G 4f	.	8dd	.	.	.	.	.	.	.	.	.
.	.	.	.	.	.	.	.	.	8bJ	.	.	.	.	8bJ	.	.	.	.	.	.	.	.	.
!	!	!	!LO:LB:g=original	!	!	!	!	!	!	!	!	!	!	!	!	!	!	!	!	!	!	!	!
=64	=64	=64	=64	=64	=64	=64	=64	=64	=64	=64	=64	=64	=64	=64	=64	=64	=64	=64	=64	=64	=64	=64	=64
2C	.	.	2C	-son	-cem	2e	-son	-cem	2cc	-son	-cem	4e	.	8ccL	.	1r	.	1r	.	1r	.	1r	.
.	.	.	.	.	.	.	.	.	.	.	.	.	.	8b	.	.	.	.	.	.	.	.	.
.	.	.	.	.	.	.	.	.	.	.	.	4g	.	8cc	.	.	.	.	.	.	.	.	.
.	.	.	.	.	.	.	.	.	.	.	.	.	.	8ddJ	.	.	.	.	.	.	.	.	.
2r	.	.	2r	.	.	2r	.	.	2r	.	.	8ccL	.	8eeL	.	.	.	.	.	.	.	.	.
.	.	.	.	.	.	.	.	.	.	.	.	8b	.	8dd	.	.	.	.	.	.	.	.	.
.	.	.	.	.	.	.	.	.	.	.	.	8cc	.	8ee	.	.	.	.	.	.	.	.	.
.	.	.	.	.	.	.	.	.	.	.	.	8ddJ	.	8ffJ	.	.	.	.	.	.	.	.	.
=65	=65	=65	=65	=65	=65	=65	=65	=65	=65	=65	=65	=65	=65	=65	=65	=65	=65	=65	=65	=65	=65	=65	=65
2c	3	.	1r	.	.	1r	.	.	1r	.	.	2cc 2ee	.	8ggL	.	1r	.	1r	.	1r	.	1r	.
.	.	.	.	.	.	.	.	.	.	.	.	.	.	8ee	.	.	.	.	.	.	.	.	.
.	.	.	.	.	.	.	.	.	.	.	.	.	.	8aa	.	.	.	.	.	.	.	.	.
.	.	.	.	.	.	.	.	.	.	.	.	.	.	8ggJ	.	.	.	.	.	.	.	.	.
8cL	3	.	.	.	.	.	.	.	.	.	.	(>8eeL	.	2gg	.	.	.	.	.	.	.	.	.
8B	3	.	.	.	.	.	.	.	.	.	.	8cc)	.	.	.	.	.	.	.	.	.	.	.
8d	3	.	.	.	.	.	.	.	.	.	.	(>8ff	.	.	.	.	.	.	.	.	.	.	.
8cJ	3	.	.	.	.	.	.	.	.	.	.	8eeJ)	.	.	.	.	.	.	.	.	.	.	.
=66	=66	=66	=66	=66	=66	=66	=66	=66	=66	=66	=66	=66	=66	=66	=66	=66	=66	=66	=66	=66	=66	=66	=66
2c	.	.	1r	.	.	1r	.	.	1r	.	.	2cc 2ee	.	8ggL	.	1r	.	1r	.	1r	.	1r	.
.	.	.	.	.	.	.	.	.	.	.	.	.	.	8ee	.	.	.	.	.	.	.	.	.
.	.	.	.	.	.	.	.	.	.	.	.	.	.	8aa	.	.	.	.	.	.	.	.	.
.	.	.	.	.	.	.	.	.	.	.	.	.	.	8ggJ	.	.	.	.	.	.	.	.	.
8cL	3	.	.	.	.	.	.	.	.	.	.	(>8eeL	.	2gg	.	.	.	.	.	.	.	.	.
8B	3	.	.	.	.	.	.	.	.	.	.	8dd)	.	.	.	.	.	.	.	.	.	.	.
8d	3	.	.	.	.	.	.	.	.	.	.	(>8ff	.	.	.	.	.	.	.	.	.	.	.
8cJ	3	.	.	.	.	.	.	.	.	.	.	8eeJ)	.	.	.	.	.	.	.	.	.	.	.
!	!	!	!	!	!	!	!	!	!	!	!	!LO:LB:g=original	!	!	!	!	!	!	!	!	!	!	!
=67	=67	=67	=67	=67	=67	=67	=67	=67	=67	=67	=67	=67	=67	=67	=67	=67	=67	=67	=67	=67	=67	=67	=67
4c	.	.	4r	.	.	4r	.	.	4r	.	.	4ee	.	8ggL	.	1r	.	1r	.	1r	.	1r	.
.	.	.	.	.	.	.	.	.	.	.	.	.	.	8ee	.	.	.	.	.	.	.	.	.
4E	6	.	4E	Chri-	Do-	4g	e-	Do-	4ee	e-	Do-	4G 4g	.	8ee	.	.	.	.	.	.	.	.	.
.	.	.	.	.	.	.	.	.	.	.	.	.	.	8ccJ	.	.	.	.	.	.	.	.	.
4F	6	.	4F	-ste	-na	4a	-lei-	-na	(>4ff	.	-na	4a	.	8ffL	.	.	.	.	.	.	.	.	.
.	.	.	.	.	.	.	.	.	.	.	.	.	.	8dd	.	.	.	.	.	.	.	.	.
4G	.	.	4G	e-	no-	4f	-son	no-	4dd)	.	no-	4G 4f	.	8dd	.	.	.	.	.	.	.	.	.
.	.	.	.	.	.	.	.	.	.	.	.	.	.	8bJ	.	.	.	.	.	.	.	.	.
!	!	!	!	!	!	!LO:LB:g=original	!	!	!	!	!	!	!	!LO:PB:g=original	!	!	!	!	!	!LO:LB:g=original	!	!	!
=68	=68	=68	=68	=68	=68	=68	=68	=68	=68	=68	=68	=68	=68	=68	=68	=68	=68	=68	=68	=68	=68	=68	=68
4c	.	.	4c	-lei-	-bis	4c	Ky-	-bis	4cc	-lei-	-bis	4G 4e	p	2.cc	p	1r	.	1r	.	2r	.	2r	.
8GL	.	.	4G	.	pa-	4e	-ri-	pa-	4ee	.	pa-	4G 4e	.	.	.	.	.	.	.	.	.	.	.
8EJ	.	.	.	.	.	.	.	.	.	.	.	.	.	.	.	.	.	.	.	.	.	.	.
4C	.	.	4C	-son	-cem	4c	-e	-cem	4cc	-son	-cem	4G 4e	.	.	.	.	.	.	.	4r	.	4r	.
4r	.	.	4r	.	.	4r	.	.	4r	.	.	4r	.	8ccL	.	.	.	.	.	8ccL	p	8ccL	p
.	.	.	.	.	.	.	.	.	.	.	.	.	.	8ddJ	.	.	.	.	.	8bJ	.	8ddJ	.
!LO:LB:g=original	!	!	!	!	!	!	!	!	!	!	!	!	!	!	!	!	!	!	!	!	!	!	!
=69	=69	=69	=69	=69	=69	=69	=69	=69	=69	=69	=69	=69	=69	=69	=69	=69	=69	=69	=69	=69	=69	=69	=69
!LO:TX:a:t=Solo	!	!	!	!	!	!	!	!	!	!	!	!	!	!	!	!	!	!	!	!	!	!	!
8CL/	.	p	4c	Ky-	Do-	4cc	Ky-	Do-	4ee	Ky-	Do-	4G 4g	.	4ee	.	1r	.	1r	.	4cc	.	4ee	.
8c\	.	.	.	.	.	.	.	.	.	.	.	.	.	.	.	.	.	.	.	.	.	.	.
8C/	.	.	4c	-ri-	-na	4cc	-ri-	-na	4ee	-ri-	-na	2G 2g	.	2ee	.	.	.	.	.	2cc	.	2ee	.
8cJ\	.	.	.	.	.	.	.	.	.	.	.	.	.	.	.	.	.	.	.	.	.	.	.
!LO:TX:a:t=problem:połowa taktu powtórzona znakiem ÷	!	!	!	!	!	!	!	!	!	!	!	!	!	!	!	!	!	!	!	!	!	!	!
8CL/	.	.	4c	-e	no-	4cc	-e	no-	4ee	-e	no-	.	.	.	.	.	.	.	.	.	.	.	.
8c\	.	.	.	.	.	.	.	.	.	.	.	.	.	.	.	.	.	.	.	.	.	.	.
8C/	.	.	4C	e-	-bis	8ddL	e-	-bis	8ffL	e-	-bis	4G 4g	.	8ffL	.	.	.	.	.	8ddL	.	8ffL	.
8cJ\	.	.	.	.	.	8ccJ	.	.	8eeJ	.	.	.	.	8eeJ	.	.	.	.	.	8ccJ	.	8eeJ	.
=70	=70	=70	=70	=70	=70	=70	=70	=70	=70	=70	=70	=70	=70	=70	=70	=70	=70	=70	=70	=70	=70	=70	=70
8GGL/	.	.	2G	-lei-	pa-	(>4cc	-lei-	pa-	(>4ee	-lei-	pa-	(>4cc	.	(>4ee	.	1r	.	1r	.	(>4cc	.	(>4ee	.
8G\	.	.	.	.	.	.	.	.	.	.	.	.	.	.	.	.	.	.	.	.	.	.	.
8GG/	.	.	.	.	.	4b)	.	.	4dd)	.	.	4b)	.	4dd)	.	.	.	.	.	4b)	.	4dd)	.
8GJ\	.	.	.	.	.	.	.	.	.	.	.	.	.	.	.	.	.	.	.	.	.	.	.
!LO:TX:a:t=problem:połowa taktu powtórzona znakiem ÷	!	!	!	!	!	!	!	!	!	!	!	!	!	!	!	!	!	!	!	!	!	!	!
8GGL/	.	.	4G	-son	-cem	4b	-son	-cem	4dd	-son	-cem	4b	.	4dd	.	.	.	.	.	4b`	.	4dd`	.
8G\	.	.	.	.	.	.	.	.	.	.	.	.	.	.	.	.	.	.	.	.	.	.	.
8GG/	.	.	4r	.	.	4r	.	.	4r	.	.	8bL	.	8ddL	.	.	.	.	.	8bL	.	8ddL	.
8GJ\	.	.	.	.	.	.	.	.	.	.	.	8ccJ	.	8eeJ	.	.	.	.	.	8ccJ	.	8eeJ	.
!	!	!	!LO:PB:g=original	!	!	!	!	!	!LO:LB:g=original	!	!	!	!	!	!	!	!	!	!	!	!	!	!
=71	=71	=71	=71	=71	=71	=71	=71	=71	=71	=71	=71	=71	=71	=71	=71	=71	=71	=71	=71	=71	=71	=71	=71
8GGL/	.	.	2G	Chri-	Do_na	2dd	Chri-	Do_na	2ff	Chri-	Do_na	4dd	.	4ff	.	1r	.	1r	.	4dd	.	4ff	.
8G\	.	.	.	.	.	.	.	.	.	.	.	.	.	.	.	.	.	.	.	.	.	.	.
8GG/	.	.	.	.	.	.	.	.	.	.	.	2dd	.	2ff	.	.	.	.	.	2dd	.	2ff	.
8GJ\	.	.	.	.	.	.	.	.	.	.	.	.	.	.	.	.	.	.	.	.	.	.	.
!LO:TX:a:t=problem:połowa taktu powtórzona znakiem ÷	!	!	!	!	!	!	!	!	!	!	!	!	!	!	!	!	!	!	!	!	!	!	!
8GGL/	.	.	4B	-ste	no-	4dd	-ste	no-	4ff	-ste	no-	.	.	.	.	.	.	.	.	.	.	.	.
8G\	.	.	.	.	.	.	.	.	.	.	.	.	.	.	.	.	.	.	.	.	.	.	.
8GG/	.	.	4B	e-	-bis	8eeL	e-	-bis	(>8ggL	e-	-bis	8eeL	.	8ggL	.	.	.	.	.	8eeL	.	8ggL	.
8GJ\	.	.	.	.	.	8ddJ	.	.	8ffJ)	.	.	8ddJ	.	8ffJ	.	.	.	.	.	8ddJ	.	8ffJ	.
=72	=72	=72	=72	=72	=72	=72	=72	=72	=72	=72	=72	=72	=72	=72	=72	=72	=72	=72	=72	=72	=72	=72	=72
8CL/	4 2	.	4c	-lei-	pa-	4dd	-lei-	pa-	(>4ff	-lei-	pa-	4dd	.	(>4ff	.	1r	.	1r	.	(>4dd	.	(>4ff	.
8c\	.	.	.	.	.	.	.	.	.	.	.	.	.	.	.	.	.	.	.	.	.	.	.
8C/	3	.	4C	.	.	4cc	.	.	4ee)	.	.	4cc	.	4ee)	.	.	.	.	.	4cc)	.	4ee)	.
8cJ\	.	.	.	.	.	.	.	.	.	.	.	.	.	.	.	.	.	.	.	.	.	.	.
4C	.	.	4C	-son	-cem	4cc	-son	-cem	4ee	-son	-cem	4cc	.	4ee	.	.	.	.	.	4cc	.	4ee`	.
4r	.	.	4r	.	.	4r	.	.	4r	.	.	8ccL	.	8eeL	.	.	.	.	.	8ccL	.	8eeL	.
.	.	.	.	.	.	.	.	.	.	.	.	8ddJ	.	8ffJ	.	.	.	.	.	8ddJ	.	8ffJ	.
=73	=73	=73	=73	=73	=73	=73	=73	=73	=73	=73	=73	=73	=73	=73	=73	=73	=73	=73	=73	=73	=73	=73	=73
2c	3	.	1r	.	.	1r	.	.	1r	.	.	2cc 2ee	.	(>8ggL	.	1r	.	1r	.	4ee	.	4gg	.
.	.	.	.	.	.	.	.	.	.	.	.	.	.	8ee)	.	.	.	.	.	.	.	.	.
.	.	.	.	.	.	.	.	.	.	.	.	.	.	(>8aa	.	.	.	.	.	4ff	.	4aa	.
.	.	.	.	.	.	.	.	.	.	.	.	.	.	8ggJ)	.	.	.	.	.	.	.	.	.
8cL	3	.	.	.	.	.	.	.	.	.	.	(>8eeL	.	2gg	.	.	.	.	.	2ee	.	2gg	.
8B	3	.	.	.	.	.	.	.	.	.	.	8dd)	.	.	.	.	.	.	.	.	.	.	.
8d	3	.	.	.	.	.	.	.	.	.	.	(>8ff	.	.	.	.	.	.	.	.	.	.	.
8cJ	3	.	.	.	.	.	.	.	.	.	.	8eeJ)	.	.	.	.	.	.	.	.	.	.	.
!	!	!	!	!	!	!	!	!	!	!	!	!	!	!LO:LB:g=original	!	!	!	!	!	!LO:LB:g=original	!	!LO:LB:g=original	!
=74	=74	=74	=74	=74	=74	=74	=74	=74	=74	=74	=74	=74	=74	=74	=74	=74	=74	=74	=74	=74	=74	=74	=74
2c	3	.	1r	.	.	1r	.	.	1r	.	.	2cc 2ee	.	8ggL	.	1r	.	1r	.	8eeL	.	8ggL	.
.	.	.	.	.	.	.	.	.	.	.	.	.	.	8ee	.	.	.	.	.	8cc	.	8ee	.
.	.	.	.	.	.	.	.	.	.	.	.	.	.	8aa	.	.	.	.	.	8ff	.	8aa	.
.	.	.	.	.	.	.	.	.	.	.	.	.	.	8ggJ	.	.	.	.	.	8eeJ	.	8ggJ	.
8cL	3	.	.	.	.	.	.	.	.	.	.	(>8eeL	.	2gg	.	.	.	.	.	2ee	.	2gg	.
8B	3	.	.	.	.	.	.	.	.	.	.	8cc)	.	.	.	.	.	.	.	.	.	.	.
8d	3	.	.	.	.	.	.	.	.	.	.	(>8ff	.	.	.	.	.	.	.	.	.	.	.
8cJ	3	.	.	.	.	.	.	.	.	.	.	8eeJ)	.	.	.	.	.	.	.	.	.	.	.
!LO:PB:g=original	!	!	!	!	!	!	!	!	!	!	!	!LO:LB:g=original	!	!	!	!	!	!	!	!	!	!	!
=75	=75	=75	=75	=75	=75	=75	=75	=75	=75	=75	=75	=75	=75	=75	=75	=75	=75	=75	=75	=75	=75	=75	=75
4c	.	.	4r	.	.	4r	.	.	4r	.	.	4ee	.	8ggL	.	1r	.	1r	.	1r	.	1r	.
.	.	.	.	.	.	.	.	.	.	.	.	.	.	8ee	.	.	.	.	.	.	.	.	.
4E	6	.	4E	e-	no-	4cc	e-	no-	4ee	e-	no-	4G 4g	.	8ee	.	.	.	.	.	.	.	.	.
.	.	.	.	.	.	.	.	.	.	.	.	.	.	8ccJ	.	.	.	.	.	.	.	.	.
4F	6	.	(>4F	-lei-	-bis	4a	-lei-	-bis	8ffL	-lei-	-bis	4a	.	8ffL	.	.	.	.	.	.	.	.	.
.	.	.	.	.	.	.	.	.	8dd	.	.	.	.	8dd	.	.	.	.	.	.	.	.	.
4G	.	.	4G)	.	pa-	4d	.	pa-	8dd	.	pa-	4G 4f	.	8dd	.	.	.	.	.	.	.	.	.
.	.	.	.	.	.	.	.	.	8bJ	.	.	.	.	8bJ	.	.	.	.	.	.	.	.	.
!	!	!	!	!	!	!LO:LB:g=original	!	!	!	!	!	!	!	!	!	!	!	!	!	!	!	!	!
=76	=76	=76	=76	=76	=76	=76	=76	=76	=76	=76	=76	=76	=76	=76	=76	=76	=76	=76	=76	=76	=76	=76	=76
2C	.	.	2C	-son	-cem	2e	-son	-cem	2cc	-son	-cem	4e	.	8ccL	.	1r	.	1r	.	1r	.	1r	.
.	.	.	.	.	.	.	.	.	.	.	.	.	.	8b	.	.	.	.	.	.	.	.	.
.	.	.	.	.	.	.	.	.	.	.	.	4g	.	8cc	.	.	.	.	.	.	.	.	.
.	.	.	.	.	.	.	.	.	.	.	.	.	.	8ddJ	.	.	.	.	.	.	.	.	.
2r	.	.	2r	.	.	2r	.	.	2r	.	.	8ccL	.	8eeL	.	.	.	.	.	.	.	.	.
.	.	.	.	.	.	.	.	.	.	.	.	8b	.	8dd	.	.	.	.	.	.	.	.	.
.	.	.	.	.	.	.	.	.	.	.	.	8cc	.	8ee	.	.	.	.	.	.	.	.	.
.	.	.	.	.	.	.	.	.	.	.	.	8ddJ	.	8ffJ	.	.	.	.	.	.	.	.	.
=77	=77	=77	=77	=77	=77	=77	=77	=77	=77	=77	=77	=77	=77	=77	=77	=77	=77	=77	=77	=77	=77	=77	=77
2c	5 3	.	1r	.	.	1r	.	.	1r	.	.	2cc 2ee	.	8ggL	.	1r	.	1r	.	4ee	.	4gg	.
.	.	.	.	.	.	.	.	.	.	.	.	.	.	8ee	.	.	.	.	.	.	.	.	.
.	.	.	.	.	.	.	.	.	.	.	.	.	.	8aa	.	.	.	.	.	4ff	.	4aa	.
.	.	.	.	.	.	.	.	.	.	.	.	.	.	8ggJ	.	.	.	.	.	.	.	.	.
8cL	3	.	.	.	.	.	.	.	.	.	.	(>8eeL	.	2gg	.	.	.	.	.	2ee	.	2gg	.
8B	3	.	.	.	.	.	.	.	.	.	.	8cc)	.	.	.	.	.	.	.	.	.	.	.
8d	3	.	.	.	.	.	.	.	.	.	.	(>8ff	.	.	.	.	.	.	.	.	.	.	.
8cJ	3	.	.	.	.	.	.	.	.	.	.	8eeJ)	.	.	.	.	.	.	.	.	.	.	.
=78	=78	=78	=78	=78	=78	=78	=78	=78	=78	=78	=78	=78	=78	=78	=78	=78	=78	=78	=78	=78	=78	=78	=78
2c	3	.	1r	.	.	1r	.	.	1r	.	.	2cc 2ee	.	8ggL	.	1r	.	1r	.	8eeL	.	8ggL	.
.	.	.	.	.	.	.	.	.	.	.	.	.	.	8ee	.	.	.	.	.	8cc	.	8ee	.
.	.	.	.	.	.	.	.	.	.	.	.	.	.	8aa	.	.	.	.	.	8ff	.	8aa	.
.	.	.	.	.	.	.	.	.	.	.	.	.	.	8ggJ	.	.	.	.	.	8eeJ	.	8ggJ	.
8cL	3	.	.	.	.	.	.	.	.	.	.	(>8eeL	.	2gg	.	.	.	.	.	2ee	.	2gg	.
8B	3	.	.	.	.	.	.	.	.	.	.	8dd)	.	.	.	.	.	.	.	.	.	.	.
8d	3	.	.	.	.	.	.	.	.	.	.	(>8ff	.	.	.	.	.	.	.	.	.	.	.
8cJ	3	.	.	.	.	.	.	.	.	.	.	8eeJ)	.	.	.	.	.	.	.	.	.	.	.
!	!	!	!	!	!	!	!	!	!	!	!	!	!	!LO:LB:g=original	!	!	!	!	!	!	!	!	!
=79	=79	=79	=79	=79	=79	=79	=79	=79	=79	=79	=79	=79	=79	=79	=79	=79	=79	=79	=79	=79	=79	=79	=79
4c	.	.	4r	.	.	4r	.	.	4r	.	.	4ee	.	8ggL	.	1r	.	1r	.	1r	.	1r	.
.	.	.	.	.	.	.	.	.	.	.	.	.	.	8ee	.	.	.	.	.	.	.	.	.
4E	6	.	4E	e-	no-	4g	e-	no-	4ee	e-	no-	4G 4g	.	8ee	.	.	.	.	.	.	.	.	.
.	.	.	.	.	.	.	.	.	.	.	.	.	.	8ccJ	.	.	.	.	.	.	.	.	.
4F	6	.	(>4F	-lei-	-bis	4a	-lei-	-bis	(>4ff	-lei-	-bis	4a	.	8ffL	.	.	.	.	.	.	.	.	.
.	.	.	.	.	.	.	.	.	.	.	.	.	.	8dd	.	.	.	.	.	.	.	.	.
4G	.	.	4G)	.	pa-	4f	.	pa-	4dd)	.	pa-	4G 4f	.	8dd	.	.	.	.	.	.	.	.	.
.	.	.	.	.	.	.	.	.	.	.	.	.	.	8bJ	.	.	.	.	.	.	.	.	.
!	!	!	!LO:LB:g=original	!	!	!	!	!	!	!	!	!	!	!	!	!	!	!	!	!	!	!	!
=80	=80	=80	=80	=80	=80	=80	=80	=80	=80	=80	=80	=80	=80	=80	=80	=80	=80	=80	=80	=80	=80	=80	=80
!LO:TX:a:t=Tutti	!	!	!	!	!	!	!	!	!	!	!	!	!	!	!	!	!	!	!	!	!	!	!
2C	.	ff	2C	-son	-cem	2e	-son	-cem	2cc	-son	-cem	2c	.	2cc	f	2c	f	2cc	f	2cc	.	2cc	.
8E`L	.	.	2r	.	.	2r	.	.	2r	.	.	8eL	.	8eeL	.	4e	.	4ee	.	4ee	.	4ee	.
8C`	.	.	.	.	.	.	.	.	.	.	.	8c	.	8cc	.	.	.	.	.	.	.	.	.
8E`	.	.	.	.	.	.	.	.	.	.	.	8e	ff	8ee	ff	4c	.	4cc	.	4cc	.	4cc	.
8C`J	.	.	.	.	.	.	.	.	.	.	.	8cJ	.	8ccJ	.	.	.	.	.	.	.	.	.
!LO:LB:g=original	!	!	!	!	!	!	!	!	!LO:LB:g=original	!	!	!	!	!	!	!	!	!	!	!	!	!	!
=81	=81	=81	=81	=81	=81	=81	=81	=81	=81	=81	=81	=81	=81	=81	=81	=81	=81	=81	=81	=81	=81	=81	=81
2G`	.	.	1r	.	.	1r	.	.	2ee	Chri-	Do-	2g	.	2gg	.	2g	.	2gg	.	2g	.	2gg	.
8B`L	.	.	.	.	.	.	.	.	4ff	.	-na	8bL	.	8bbL	.	2g	.	2g	.	4b/	.	4bb	.
8G`	.	.	.	.	.	.	.	.	.	.	.	8g	.	8gg	.	.	.	.	.	.	.	.	.
8B`	.	.	.	.	.	.	.	.	4dd	-ste	no-	8b	.	8bb	.	.	.	.	.	4g	.	4gg	.
8G`J	.	.	.	.	.	.	.	.	.	.	.	8gJ	.	8ggJ	.	.	.	.	.	.	.	.	.
!	!	!	!	!	!	!	!	!	!	!	!	!	!	!	!	!	!	!	!	!LO:LB:g=original	!	!	!
=82	=82	=82	=82	=82	=82	=82	=82	=82	=82	=82	=82	=82	=82	=82	=82	=82	=82	=82	=82	=82	=82	=82	=82
4c	.	.	4r	.	.	2g	Chri-	Do-	2ee	e-	-bis	(>8ccL	.	2ccc	.	2c	.	2cc	.	2cc	.	2ccc	.
.	.	.	.	.	.	.	.	.	.	.	.	8ee	.	.	.	.	.	.	.	.	.	.	.
8CL/	.	.	8EL	e-	no-	.	.	.	.	.	.	8gg	.	.	.	.	.	.	.	.	.	.	.
8EJ	.	.	8GJ	.	.	.	.	.	.	.	.	8eeJ)	.	.	.	.	.	.	.	.	.	.	.
4G	.	.	2G	-lei-	-bis	4g	-ste	-na	4ff	-lei-	pa-	2dd 2ff	.	8bbL	.	2g	.	2g	.	4b/	.	4bb	.
.	.	.	.	.	.	.	.	.	.	.	.	.	.	8gg	.	.	.	.	.	.	.	.	.
4GG	.	.	.	.	.	4g	e-	no-	4dd	-son	-cem	.	.	8gg	.	.	.	.	.	4g	.	4gg	.
.	.	.	.	.	.	.	.	.	.	.	.	.	.	8bbJ	.	.	.	.	.	.	.	.	.
!	!	!	!	!	!	!	!	!	!	!	!	!LO:PB:g=original	!	!	!	!	!	!	!	!	!	!LO:LB:g=original	!
=83	=83	=83	=83	=83	=83	=83	=83	=83	=83	=83	=83	=83	=83	=83	=83	=83	=83	=83	=83	=83	=83	=83	=83
4C	.	.	4c	-son	Do-	2g	-lei-	-bis	2ee	e-	Do-	(>8eeL	.	2ccc	.	2c	.	2cc	.	2cc	.	2ccc	.
.	.	.	.	.	.	.	.	.	.	.	.	8gg)	.	.	.	.	.	.	.	.	.	.	.
8CL/	.	.	8CL/	e-	.	.	.	.	.	.	.	(>8ee	.	.	.	.	.	.	.	.	.	.	.
8EJ	.	.	8EJ	.	.	.	.	.	.	.	.	8ggJ)	.	.	.	.	.	.	.	.	.	.	.
4G	.	.	2G	-lei-	-na	4g	-son	pa-	4ff	-lei-	-na	2dd 2ff	.	8bbL	.	2G	.	2g	.	4b/	.	4bb	.
.	.	.	.	.	.	.	.	.	.	.	.	.	.	8gg	.	.	.	.	.	.	.	.	.
4GG	.	.	.	.	.	4g	e-	-cem	4dd	-son	no-	.	.	8gg	.	.	.	.	.	4gg	.	8ggL	.
.	.	.	.	.	.	.	.	.	.	.	.	.	.	8bbJ	.	.	.	.	.	.	.	8bbJ	.
!	!	!	!	!	!	!	!	!	!	!	!	!	!	!LO:LB:g=original	!	!	!	!	!	!	!	!	!
=84	=84	=84	=84	=84	=84	=84	=84	=84	=84	=84	=84	=84	=84	=84	=84	=84	=84	=84	=84	=84	=84	=84	=84
8CL	.	.	4c	-son	no-	8cL	-lei-	no-	4cc	e-	-bis	4cc 4ee	.	4ccc	.	1e	.	2cc	.	4ee	.	4ccc	.
8E	.	.	.	.	.	8eJ	.	.	.	.	.	.	.	.	.	.	.	.	.	.	.	.	.
8G	.	.	4c	e-	-bis	4g	.	-bis	4ee	.	.	4cc 4ee	.	4ccc	.	.	.	.	.	2ee	.	2ccc	.
8cJ	.	.	.	.	.	.	.	.	.	.	.	.	.	.	.	.	.	.	.	.	.	.	.
8GL	.	.	4G	-lei-	pa-	2g	.	pa-	2ee	-lei-	pa-	4cc 4ee	.	4ccc	.	.	.	4cc	.	.	.	.	.
8cJ	.	.	.	.	.	.	.	.	.	.	.	.	.	.	.	.	.	.	.	.	.	.	.
8EL	.	.	4E	.	.	.	.	.	.	.	.	4cc 4ee	.	4ccc	.	.	.	4cc	.	4ee	.	4ccc	.
8GJ	.	.	.	.	.	.	.	.	.	.	.	.	.	.	.	.	.	.	.	.	.	.	.
=85	=85	=85	=85	=85	=85	=85	=85	=85	=85	=85	=85	=85	=85	=85	=85	=85	=85	=85	=85	=85	=85	=85	=85
2C	.	.	2C	-son.	-cem	2g	-son.	-cem	2ee	-son.	cem	2cc 2ee	.	2ccc	.	2e	.	2cc	.	2ee	.	2ccc	.
2r	.	.	2r	.	.	2r	.	.	2r	.	.	2r	.	2r	.	2r	.	2r	.	2r	.	2r	.
==	==	==	==	==	==	==	==	==	==	==	==	==	==	==	==	==	==	==	==	==	==	==	==
*-	*-	*-	*-	*-	*-	*-	*-	*-	*-	*-	*-	*-	*-	*-	*-	*-	*-	*-	*-	*-	*-	*-	*-
!!!system-decoration: s1,s2,s3,s4,s5,s6,s7,s8,s9,s10
!!!RDF**kern: > = above
!!!RDF**kern: < = below
!!!AIN: 1 alto 1 bass 2 clars 2 empty 1 organ 2 violn 1 vox
!!!ENC: Anna Matuszewska
!!!END: 2020-03-28
